hdr/curves/thetas.spi1d
Version 1
From 0.000000 1.000000
Length 1024
Components 3
{
         0.001716 0.001716 0.001716
         0.001957 0.001957 0.001957
         0.002231 0.002231 0.002231
         0.002544 0.002544 0.002544
         0.002901 0.002901 0.002901
         0.003135 0.003135 0.003135
         0.003385 0.003385 0.003385
         0.003655 0.003655 0.003655
         0.003947 0.003947 0.003947
         0.004172 0.004172 0.004172
         0.004407 0.004407 0.004407
         0.004655 0.004655 0.004655
         0.004917 0.004917 0.004917
         0.005134 0.005134 0.005134
         0.005359 0.005359 0.005359
         0.005593 0.005593 0.005593
         0.005837 0.005837 0.005837
         0.006048 0.006048 0.006048
         0.006265 0.006265 0.006265
         0.006490 0.006490 0.006490
         0.006722 0.006722 0.006722
         0.006930 0.006930 0.006930
         0.007142 0.007142 0.007142
         0.007361 0.007361 0.007361
         0.007586 0.007586 0.007586
         0.007792 0.007792 0.007792
         0.008001 0.008001 0.008001
         0.008216 0.008216 0.008216
         0.008437 0.008437 0.008437
         0.008642 0.008642 0.008642
         0.008851 0.008851 0.008851
         0.009065 0.009065 0.009065
         0.009284 0.009284 0.009284
         0.009491 0.009491 0.009491
         0.009701 0.009701 0.009701
         0.009915 0.009915 0.009915
         0.010134 0.010134 0.010134
         0.010344 0.010344 0.010344
         0.010557 0.010557 0.010557
         0.010773 0.010773 0.010773
         0.010995 0.010995 0.010995
         0.011208 0.011208 0.011208
         0.011424 0.011424 0.011424
         0.011645 0.011645 0.011645
         0.011869 0.011869 0.011869
         0.012087 0.012087 0.012087
         0.012307 0.012307 0.012307
         0.012531 0.012531 0.012531
         0.012759 0.012759 0.012759
         0.012981 0.012981 0.012981
         0.013204 0.013204 0.013204
         0.013432 0.013432 0.013432
         0.013663 0.013663 0.013663
         0.013886 0.013886 0.013886
         0.014111 0.014111 0.014111
         0.014340 0.014340 0.014340
         0.014572 0.014572 0.014572
         0.014795 0.014795 0.014795
         0.015018 0.015018 0.015018
         0.015244 0.015244 0.015244
         0.015474 0.015474 0.015474
         0.015692 0.015692 0.015692
         0.015910 0.015910 0.015910
         0.016131 0.016131 0.016131
         0.016355 0.016355 0.016355
         0.016569 0.016569 0.016569
         0.016782 0.016782 0.016782
         0.016997 0.016997 0.016997
         0.017216 0.017216 0.017216
         0.017426 0.017426 0.017426
         0.017637 0.017637 0.017637
         0.017850 0.017850 0.017850
         0.018066 0.018066 0.018066
         0.018278 0.018278 0.018278
         0.018491 0.018491 0.018491
         0.018706 0.018706 0.018706
         0.018924 0.018924 0.018924
         0.019140 0.019140 0.019140
         0.019358 0.019358 0.019358
         0.019579 0.019579 0.019579
         0.019801 0.019801 0.019801
         0.020023 0.020023 0.020023
         0.020246 0.020246 0.020246
         0.020472 0.020472 0.020472
         0.020700 0.020700 0.020700
         0.020925 0.020925 0.020925
         0.021151 0.021151 0.021151
         0.021379 0.021379 0.021379
         0.021609 0.021609 0.021609
         0.021834 0.021834 0.021834
         0.022058 0.022058 0.022058
         0.022284 0.022284 0.022284
         0.022513 0.022513 0.022513
         0.022737 0.022737 0.022737
         0.022961 0.022961 0.022961
         0.023187 0.023187 0.023187
         0.023415 0.023415 0.023415
         0.023641 0.023641 0.023641
         0.023867 0.023867 0.023867
         0.024096 0.024096 0.024096
         0.024326 0.024326 0.024326
         0.024555 0.024555 0.024555
         0.024783 0.024783 0.024783
         0.025014 0.025014 0.025014
         0.025246 0.025246 0.025246
         0.025478 0.025478 0.025478
         0.025711 0.025711 0.025711
         0.025946 0.025946 0.025946
         0.026183 0.026183 0.026183
         0.026421 0.026421 0.026421
         0.026659 0.026659 0.026659
         0.026899 0.026899 0.026899
         0.027142 0.027142 0.027142
         0.027383 0.027383 0.027383
         0.027623 0.027623 0.027623
         0.027866 0.027866 0.027866
         0.028111 0.028111 0.028111
         0.028352 0.028352 0.028352
         0.028593 0.028593 0.028593
         0.028836 0.028836 0.028836
         0.029080 0.029080 0.029080
         0.029326 0.029326 0.029326
         0.029572 0.029572 0.029572
         0.029821 0.029821 0.029821
         0.030071 0.030071 0.030071
         0.030327 0.030327 0.030327
         0.030587 0.030587 0.030587
         0.030849 0.030849 0.030849
         0.031114 0.031114 0.031114
         0.031379 0.031379 0.031379
         0.031645 0.031645 0.031645
         0.031914 0.031914 0.031914
         0.032185 0.032185 0.032185
         0.032449 0.032449 0.032449
         0.032710 0.032710 0.032710
         0.032973 0.032973 0.032973
         0.033238 0.033238 0.033238
         0.033493 0.033493 0.033493
         0.033742 0.033742 0.033742
         0.033993 0.033993 0.033993
         0.034246 0.034246 0.034246
         0.034489 0.034489 0.034489
         0.034726 0.034726 0.034726
         0.034965 0.034965 0.034965
         0.035206 0.035206 0.035206
         0.035446 0.035446 0.035446
         0.035686 0.035686 0.035686
         0.035928 0.035928 0.035928
         0.036171 0.036171 0.036171
         0.036410 0.036410 0.036410
         0.036646 0.036646 0.036646
         0.036883 0.036883 0.036883
         0.037122 0.037122 0.037122
         0.037360 0.037360 0.037360
         0.037598 0.037598 0.037598
         0.037838 0.037838 0.037838
         0.038079 0.038079 0.038079
         0.038326 0.038326 0.038326
         0.038579 0.038579 0.038579
         0.038834 0.038834 0.038834
         0.039091 0.039091 0.039091
         0.039352 0.039352 0.039352
         0.039616 0.039616 0.039616
         0.039883 0.039883 0.039883
         0.040151 0.040151 0.040151
         0.040422 0.040422 0.040422
         0.040695 0.040695 0.040695
         0.040970 0.040970 0.040970
         0.041247 0.041247 0.041247
         0.041516 0.041516 0.041516
         0.041779 0.041779 0.041779
         0.042043 0.042043 0.042043
         0.042309 0.042309 0.042309
         0.042565 0.042565 0.042565
         0.042810 0.042810 0.042810
         0.043056 0.043056 0.043056
         0.043304 0.043304 0.043304
         0.043552 0.043552 0.043552
         0.043800 0.043800 0.043800
         0.044050 0.044050 0.044050
         0.044301 0.044301 0.044301
         0.044558 0.044558 0.044558
         0.044820 0.044820 0.044820
         0.045084 0.045084 0.045084
         0.045349 0.045349 0.045349
         0.045620 0.045620 0.045620
         0.045898 0.045898 0.045898
         0.046177 0.046177 0.046177
         0.046458 0.046458 0.046458
         0.046743 0.046743 0.046743
         0.047032 0.047032 0.047032
         0.047323 0.047323 0.047323
         0.047615 0.047615 0.047615
         0.047907 0.047907 0.047907
         0.048197 0.048197 0.048197
         0.048490 0.048490 0.048490
         0.048784 0.048784 0.048784
         0.049073 0.049073 0.049073
         0.049354 0.049354 0.049354
         0.049637 0.049637 0.049637
         0.049921 0.049921 0.049921
         0.050203 0.050203 0.050203
         0.050480 0.050480 0.050480
         0.050759 0.050759 0.050759
         0.051039 0.051039 0.051039
         0.051320 0.051320 0.051320
         0.051601 0.051601 0.051601
         0.051885 0.051885 0.051885
         0.052169 0.052169 0.052169
         0.052456 0.052456 0.052456
         0.052746 0.052746 0.052746
         0.053037 0.053037 0.053037
         0.053329 0.053329 0.053329
         0.053622 0.053622 0.053622
         0.053914 0.053914 0.053914
         0.054208 0.054208 0.054208
         0.054504 0.054504 0.054504
         0.054797 0.054797 0.054797
         0.055085 0.055085 0.055085
         0.055375 0.055375 0.055375
         0.055666 0.055666 0.055666
         0.055953 0.055953 0.055953
         0.056231 0.056231 0.056231
         0.056511 0.056511 0.056511
         0.056792 0.056792 0.056792
         0.057072 0.057072 0.057072
         0.057347 0.057347 0.057347
         0.057624 0.057624 0.057624
         0.057903 0.057903 0.057903
         0.058186 0.058186 0.058186
         0.058478 0.058478 0.058478
         0.058771 0.058771 0.058771
         0.059066 0.059066 0.059066
         0.059363 0.059363 0.059363
         0.059666 0.059666 0.059666
         0.059971 0.059971 0.059971
         0.060277 0.060277 0.060277
         0.060585 0.060585 0.060585
         0.060895 0.060895 0.060895
         0.061207 0.061207 0.061207
         0.061520 0.061520 0.061520
         0.061833 0.061833 0.061833
         0.062144 0.062144 0.062144
         0.062457 0.062457 0.062457
         0.062771 0.062771 0.062771
         0.063085 0.063085 0.063085
         0.063395 0.063395 0.063395
         0.063707 0.063707 0.063707
         0.064021 0.064021 0.064021
         0.064334 0.064334 0.064334
         0.064643 0.064643 0.064643
         0.064954 0.064954 0.064954
         0.065265 0.065265 0.065265
         0.065577 0.065577 0.065577
         0.065885 0.065885 0.065885
         0.066194 0.066194 0.066194
         0.066504 0.066504 0.066504
         0.066815 0.066815 0.066815
         0.067123 0.067123 0.067123
         0.067433 0.067433 0.067433
         0.067744 0.067744 0.067744
         0.068057 0.068057 0.068057
         0.068375 0.068375 0.068375
         0.068694 0.068694 0.068694
         0.069014 0.069014 0.069014
         0.069336 0.069336 0.069336
         0.069661 0.069661 0.069661
         0.069987 0.069987 0.069987
         0.070315 0.070315 0.070315
         0.070645 0.070645 0.070645
         0.070979 0.070979 0.070979
         0.071316 0.071316 0.071316
         0.071654 0.071654 0.071654
         0.071993 0.071993 0.071993
         0.072332 0.072332 0.072332
         0.072672 0.072672 0.072672
         0.073014 0.073014 0.073014
         0.073356 0.073356 0.073356
         0.073695 0.073695 0.073695
         0.074035 0.074035 0.074035
         0.074376 0.074376 0.074376
         0.074717 0.074717 0.074717
         0.075048 0.075048 0.075048
         0.075381 0.075381 0.075381
         0.075716 0.075716 0.075716
         0.076051 0.076051 0.076051
         0.076386 0.076386 0.076386
         0.076722 0.076722 0.076722
         0.077060 0.077060 0.077060
         0.077399 0.077399 0.077399
         0.077736 0.077736 0.077736
         0.078075 0.078075 0.078075
         0.078416 0.078416 0.078416
         0.078758 0.078758 0.078758
         0.079104 0.079104 0.079104
         0.079452 0.079452 0.079452
         0.079801 0.079801 0.079801
         0.080151 0.080151 0.080151
         0.080501 0.080501 0.080501
         0.080851 0.080851 0.080851
         0.081204 0.081204 0.081204
         0.081557 0.081557 0.081557
         0.081910 0.081910 0.081910
         0.082263 0.082263 0.082263
         0.082619 0.082619 0.082619
         0.082976 0.082976 0.082976
         0.083335 0.083335 0.083335
         0.083696 0.083696 0.083696
         0.084058 0.084058 0.084058
         0.084421 0.084421 0.084421
         0.084784 0.084784 0.084784
         0.085148 0.085148 0.085148
         0.085513 0.085513 0.085513
         0.085880 0.085880 0.085880
         0.086248 0.086248 0.086248
         0.086618 0.086618 0.086618
         0.086989 0.086989 0.086989
         0.087361 0.087361 0.087361
         0.087731 0.087731 0.087731
         0.088103 0.088103 0.088103
         0.088476 0.088476 0.088476
         0.088851 0.088851 0.088851
         0.089224 0.089224 0.089224
         0.089598 0.089598 0.089598
         0.089974 0.089974 0.089974
         0.090351 0.090351 0.090351
         0.090729 0.090729 0.090729
         0.091107 0.091107 0.091107
         0.091488 0.091488 0.091488
         0.091870 0.091870 0.091870
         0.092250 0.092250 0.092250
         0.092633 0.092633 0.092633
         0.093016 0.093016 0.093016
         0.093402 0.093402 0.093402
         0.093789 0.093789 0.093789
         0.094177 0.094177 0.094177
         0.094568 0.094568 0.094568
         0.094959 0.094959 0.094959
         0.095349 0.095349 0.095349
         0.095741 0.095741 0.095741
         0.096134 0.096134 0.096134
         0.096528 0.096528 0.096528
         0.096925 0.096925 0.096925
         0.097322 0.097322 0.097322
         0.097722 0.097722 0.097722
         0.098123 0.098123 0.098123
         0.098522 0.098522 0.098522
         0.098922 0.098922 0.098922
         0.099324 0.099324 0.099324
         0.099727 0.099727 0.099727
         0.100132 0.100132 0.100132
         0.100538 0.100538 0.100538
         0.100946 0.100946 0.100946
         0.101355 0.101355 0.101355
         0.101763 0.101763 0.101763
         0.102172 0.102172 0.102172
         0.102583 0.102583 0.102583
         0.102995 0.102995 0.102995
         0.103408 0.103408 0.103408
         0.103824 0.103824 0.103824
         0.104241 0.104241 0.104241
         0.104659 0.104659 0.104659
         0.105076 0.105076 0.105076
         0.105494 0.105494 0.105494
         0.105914 0.105914 0.105914
         0.106336 0.106336 0.106336
         0.106758 0.106758 0.106758
         0.107183 0.107183 0.107183
         0.107609 0.107609 0.107609
         0.108037 0.108037 0.108037
         0.108463 0.108463 0.108463
         0.108890 0.108890 0.108890
         0.109319 0.109319 0.109319
         0.109750 0.109750 0.109750
         0.110183 0.110183 0.110183
         0.110618 0.110618 0.110618
         0.111054 0.111054 0.111054
         0.111492 0.111492 0.111492
         0.111928 0.111928 0.111928
         0.112365 0.112365 0.112365
         0.112804 0.112804 0.112804
         0.113245 0.113245 0.113245
         0.113688 0.113688 0.113688
         0.114133 0.114133 0.114133
         0.114580 0.114580 0.114580
         0.115029 0.115029 0.115029
         0.115475 0.115475 0.115475
         0.115922 0.115922 0.115922
         0.116371 0.116371 0.116371
         0.116822 0.116822 0.116822
         0.117276 0.117276 0.117276
         0.117731 0.117731 0.117731
         0.118188 0.118188 0.118188
         0.118647 0.118647 0.118647
         0.119104 0.119104 0.119104
         0.119562 0.119562 0.119562
         0.120021 0.120021 0.120021
         0.120483 0.120483 0.120483
         0.120947 0.120947 0.120947
         0.121412 0.121412 0.121412
         0.121880 0.121880 0.121880
         0.122349 0.122349 0.122349
         0.122818 0.122818 0.122818
         0.123287 0.123287 0.123287
         0.123758 0.123758 0.123758
         0.124231 0.124231 0.124231
         0.124706 0.124706 0.124706
         0.125182 0.125182 0.125182
         0.125660 0.125660 0.125660
         0.126140 0.126140 0.126140
         0.126620 0.126620 0.126620
         0.127101 0.127101 0.127101
         0.127584 0.127584 0.127584
         0.128070 0.128070 0.128070
         0.128555 0.128555 0.128555
         0.129041 0.129041 0.129041
         0.129530 0.129530 0.129530
         0.130020 0.130020 0.130020
         0.130512 0.130512 0.130512
         0.131005 0.131005 0.131005
         0.131500 0.131500 0.131500
         0.131998 0.131998 0.131998
         0.132493 0.132493 0.132493
         0.132990 0.132990 0.132990
         0.133489 0.133489 0.133489
         0.133989 0.133989 0.133989
         0.134493 0.134493 0.134493
         0.134999 0.134999 0.134999
         0.135507 0.135507 0.135507
         0.136017 0.136017 0.136017
         0.136525 0.136525 0.136525
         0.137034 0.137034 0.137034
         0.137545 0.137545 0.137545
         0.138058 0.138058 0.138058
         0.138573 0.138573 0.138573
         0.139090 0.139090 0.139090
         0.139609 0.139609 0.139609
         0.140130 0.140130 0.140130
         0.140650 0.140650 0.140650
         0.141172 0.141172 0.141172
         0.141696 0.141696 0.141696
         0.142222 0.142222 0.142222
         0.142748 0.142748 0.142748
         0.143275 0.143275 0.143275
         0.143804 0.143804 0.143804
         0.144335 0.144335 0.144335
         0.144868 0.144868 0.144868
         0.145403 0.145403 0.145403
         0.145940 0.145940 0.145940
         0.146479 0.146479 0.146479
         0.147016 0.147016 0.147016
         0.147554 0.147554 0.147554
         0.148094 0.148094 0.148094
         0.148636 0.148636 0.148636
         0.149182 0.149182 0.149182
         0.149730 0.149730 0.149730
         0.150281 0.150281 0.150281
         0.150833 0.150833 0.150833
         0.151386 0.151386 0.151386
         0.151938 0.151938 0.151938
         0.152493 0.152493 0.152493
         0.153050 0.153050 0.153050
         0.153608 0.153608 0.153608
         0.154166 0.154166 0.154166
         0.154727 0.154727 0.154727
         0.155290 0.155290 0.155290
         0.155854 0.155854 0.155854
         0.156421 0.156421 0.156421
         0.156989 0.156989 0.156989
         0.157559 0.157559 0.157559
         0.158129 0.158129 0.158129
         0.158698 0.158698 0.158698
         0.159270 0.159270 0.159270
         0.159844 0.159844 0.159844
         0.160422 0.160422 0.160422
         0.161003 0.161003 0.161003
         0.161586 0.161586 0.161586
         0.162172 0.162172 0.162172
         0.162758 0.162758 0.162758
         0.163345 0.163345 0.163345
         0.163933 0.163933 0.163933
         0.164524 0.164524 0.164524
         0.165115 0.165115 0.165115
         0.165707 0.165707 0.165707
         0.166300 0.166300 0.166300
         0.166896 0.166896 0.166896
         0.167493 0.167493 0.167493
         0.168092 0.168092 0.168092
         0.168693 0.168693 0.168693
         0.169297 0.169297 0.169297
         0.169899 0.169899 0.169899
         0.170502 0.170502 0.170502
         0.171107 0.171107 0.171107
         0.171714 0.171714 0.171714
         0.172324 0.172324 0.172324
         0.172935 0.172935 0.172935
         0.173549 0.173549 0.173549
         0.174165 0.174165 0.174165
         0.174783 0.174783 0.174783
         0.175403 0.175403 0.175403
         0.176025 0.176025 0.176025
         0.176650 0.176650 0.176650
         0.177274 0.177274 0.177274
         0.177898 0.177898 0.177898
         0.178524 0.178524 0.178524
         0.179153 0.179153 0.179153
         0.179784 0.179784 0.179784
         0.180419 0.180419 0.180419
         0.181056 0.181056 0.181056
         0.181695 0.181695 0.181695
         0.182334 0.182334 0.182334
         0.182975 0.182975 0.182975
         0.183618 0.183618 0.183618
         0.184262 0.184262 0.184262
         0.184907 0.184907 0.184907
         0.185552 0.185552 0.185552
         0.186198 0.186198 0.186198
         0.186847 0.186847 0.186847
         0.187500 0.187500 0.187500
         0.188156 0.188156 0.188156
         0.188815 0.188815 0.188815
         0.189476 0.189476 0.189476
         0.190137 0.190137 0.190137
         0.190798 0.190798 0.190798
         0.191461 0.191461 0.191461
         0.192126 0.192126 0.192126
         0.192792 0.192792 0.192792
         0.193458 0.193458 0.193458
         0.194126 0.194126 0.194126
         0.194796 0.194796 0.194796
         0.195469 0.195469 0.195469
         0.196145 0.196145 0.196145
         0.196823 0.196823 0.196823
         0.197504 0.197504 0.197504
         0.198185 0.198185 0.198185
         0.198865 0.198865 0.198865
         0.199547 0.199547 0.199547
         0.200232 0.200232 0.200232
         0.200919 0.200919 0.200919
         0.201606 0.201606 0.201606
         0.202295 0.202295 0.202295
         0.202987 0.202987 0.202987
         0.203683 0.203683 0.203683
         0.204384 0.204384 0.204384
         0.205088 0.205088 0.205088
         0.205794 0.205794 0.205794
         0.206500 0.206500 0.206500
         0.207206 0.207206 0.207206
         0.207914 0.207914 0.207914
         0.208625 0.208625 0.208625
         0.209336 0.209336 0.209336
         0.210047 0.210047 0.210047
         0.210761 0.210761 0.210761
         0.211477 0.211477 0.211477
         0.212194 0.212194 0.212194
         0.212913 0.212913 0.212913
         0.213634 0.213634 0.213634
         0.214357 0.214357 0.214357
         0.215082 0.215082 0.215082
         0.215805 0.215805 0.215805
         0.216530 0.216530 0.216530
         0.217258 0.217258 0.217258
         0.217988 0.217988 0.217988
         0.218720 0.218720 0.218720
         0.219454 0.219454 0.219454
         0.220191 0.220191 0.220191
         0.220934 0.220934 0.220934
         0.221688 0.221688 0.221688
         0.222445 0.222445 0.222445
         0.223204 0.223204 0.223204
         0.223964 0.223964 0.223964
         0.224723 0.224723 0.224723
         0.225485 0.225485 0.225485
         0.226249 0.226249 0.226249
         0.227014 0.227014 0.227014
         0.227779 0.227779 0.227779
         0.228546 0.228546 0.228546
         0.229316 0.229316 0.229316
         0.230088 0.230088 0.230088
         0.230863 0.230863 0.230863
         0.231640 0.231640 0.231640
         0.232420 0.232420 0.232420
         0.233201 0.233201 0.233201
         0.233981 0.233981 0.233981
         0.234764 0.234764 0.234764
         0.235549 0.235549 0.235549
         0.236335 0.236335 0.236335
         0.237120 0.237120 0.237120
         0.237908 0.237908 0.237908
         0.238698 0.238698 0.238698
         0.239489 0.239489 0.239489
         0.240279 0.240279 0.240279
         0.241071 0.241071 0.241071
         0.241865 0.241865 0.241865
         0.242661 0.242661 0.242661
         0.243455 0.243455 0.243455
         0.244252 0.244252 0.244252
         0.245052 0.245052 0.245052
         0.245853 0.245853 0.245853
         0.246652 0.246652 0.246652
         0.247454 0.247454 0.247454
         0.248258 0.248258 0.248258
         0.249068 0.249068 0.249068
         0.249889 0.249889 0.249889
         0.250713 0.250713 0.250713
         0.251540 0.251540 0.251540
         0.252370 0.252370 0.252370
         0.253206 0.253206 0.253206
         0.254045 0.254045 0.254045
         0.254887 0.254887 0.254887
         0.255731 0.255731 0.255731
         0.256573 0.256573 0.256573
         0.257418 0.257418 0.257418
         0.258265 0.258265 0.258265
         0.259116 0.259116 0.259116
         0.259974 0.259974 0.259974
         0.260834 0.260834 0.260834
         0.261697 0.261697 0.261697
         0.262566 0.262566 0.262566
         0.263452 0.263452 0.263452
         0.264341 0.264341 0.264341
         0.265233 0.265233 0.265233
         0.266128 0.266128 0.266128
         0.267020 0.267020 0.267020
         0.267915 0.267915 0.267915
         0.268813 0.268813 0.268813
         0.269714 0.269714 0.269714
         0.270612 0.270612 0.270612
         0.271514 0.271514 0.271514
         0.272419 0.272419 0.272419
         0.273326 0.273326 0.273326
         0.274235 0.274235 0.274235
         0.275148 0.275148 0.275148
         0.276063 0.276063 0.276063
         0.276981 0.276981 0.276981
         0.277897 0.277897 0.277897
         0.278817 0.278817 0.278817
         0.279739 0.279739 0.279739
         0.280664 0.280664 0.280664
         0.281586 0.281586 0.281586
         0.282512 0.282512 0.282512
         0.283441 0.283441 0.283441
         0.284372 0.284372 0.284372
         0.285301 0.285301 0.285301
         0.286234 0.286234 0.286234
         0.287169 0.287169 0.287169
         0.288107 0.288107 0.288107
         0.289043 0.289043 0.289043
         0.289983 0.289983 0.289983
         0.290925 0.290925 0.290925
         0.291870 0.291870 0.291870
         0.292813 0.292813 0.292813
         0.293759 0.293759 0.293759
         0.294708 0.294708 0.294708
         0.295659 0.295659 0.295659
         0.296609 0.296609 0.296609
         0.297561 0.297561 0.297561
         0.298516 0.298516 0.298516
         0.299477 0.299477 0.299477
         0.300479 0.300479 0.300479
         0.301484 0.301484 0.301484
         0.302492 0.302492 0.302492
         0.303504 0.303504 0.303504
         0.304519 0.304519 0.304519
         0.305537 0.305537 0.305537
