blink/scripts/LUTApply_exampleGrade.3dl
# Generated by Nuke for flame
# Dimensions 17x17x17
# Input bit depth 10
# Output bit depth 10
0 256 512 767 1023
0 0 0
6 6 247
10 10 441
15 15 618
18 18 786
34 177 34
40 183 282
44 187 475
49 191 652
52 195 820
61 315 61
66 321 308
71 325 502
75 330 679
79 334 846
85 442 85
91 448 333
95 452 526
100 456 703
104 460 871
108 561 108
114 567 356
118 572 549
123 576 726
127 580 894
165 11 11
171 17 258
176 21 452
180 25 629
184 29 797
199 188 45
205 194 292
210 198 486
214 202 663
218 206 831
226 326 72
232 332 319
236 336 513
240 341 690
244 344 857
250 453 96
256 459 343
261 463 537
265 467 714
269 471 882
273 572 119
279 578 367
284 583 560
288 587 737
292 591 905
294 19 19
300 25 267
305 30 460
309 34 638
313 38 805
328 196 54
334 202 301
339 207 494
343 211 672
347 215 839
355 335 80
361 340 328
365 345 521
370 349 698
373 353 866
379 461 105
385 467 352
390 472 545
394 476 723
398 480 890
402 581 128
408 587 375
413 591 569
417 595 746
421 599 913
413 27 27
418 33 275
423 38 468
427 42 646
431 46 813
447 204 61
452 210 309
457 214 502
461 219 680
465 223 847
473 342 88
479 348 335
484 353 529
488 357 706
492 361 874
498 469 112
504 475 360
508 479 553
512 484 731
516 488 898
521 589 135
527 595 383
531 599 576
535 603 754
539 607 921
524 35 35
530 40 282
535 45 476
539 49 653
543 53 820
558 212 69
564 217 316
569 222 510
573 226 687
577 230 854
585 350 95
591 356 343
595 360 536
600 364 714
604 368 881
609 476 120
615 482 367
620 487 561
624 491 738
628 495 905
633 596 143
638 602 390
643 607 584
647 611 761
651 615 928
