blink/scripts/LUTApply_exampleGrade.3dl
# Generated by Nuke for flame
# Dimensions 17x17x17
# Input bit depth 10
# Output bit depth 10
0 64 128 192 256 320 384 448 512 575 639 703 767 831 895 959 1023 
0 0 0
2 2 78
3 3 139
5 5 195
6 6 247
7 7 298
8 8 347
9 9 395
10 10 441
11 11 486
12 12 531
13 13 575
15 15 618
16 16 661
16 16 703
17 17 745
18 18 786
11 56 11
13 58 89
14 59 150
15 60 205
17 62 258
18 63 309
19 64 358
20 65 405
21 66 452
22 67 497
23 68 542
24 69 586
25 70 629
26 71 672
27 72 714
28 73 755
29 74 796
19 99 19
21 101 97
22 103 158
24 104 214
25 105 267
26 106 317
27 107 366
28 109 414
29 110 460
31 111 506
32 112 550
33 113 594
34 114 637
35 115 680
36 116 722
37 117 764
38 118 805
27 139 27
29 141 105
30 142 166
31 144 222
33 145 274
34 146 325
35 147 374
36 148 421
37 150 468
38 151 513
39 152 558
40 153 602
41 154 645
42 155 688
43 156 730
44 157 771
45 158 812
34 177 34
36 179 112
37 180 173
39 181 229
40 183 282
41 184 332
42 185 381
43 186 429
44 187 475
45 188 520
47 189 565
48 190 609
49 191 652
50 192 695
51 193 737
52 194 779
52 195 820
41 213 41
43 215 119
44 216 180
46 218 236
47 219 288
48 220 339
49 221 388
50 222 436
51 223 482
52 224 527
53 225 572
55 226 616
56 228 659
57 229 702
58 229 744
58 230 786
59 231 827
48 248 48
50 250 126
51 251 187
52 253 242
54 254 295
55 255 346
56 256 395
57 257 442
58 258 489
59 259 534
60 260 579
61 261 623
62 262 666
63 263 709
64 264 751
65 265 792
66 266 833
54 282 54
56 284 132
58 285 193
59 287 249
60 288 302
61 289 352
62 290 401
64 291 449
65 292 495
66 293 541
67 294 585
68 295 629
69 296 672
70 297 715
71 298 757
72 299 799
73 300 840
61 315 61
63 317 139
64 318 200
65 320 255
66 321 308
68 322 359
69 323 408
70 324 455
71 325 502
72 327 547
73 328 592
74 329 636
75 330 679
76 331 722
77 332 764
78 333 805
79 334 846
67 348 67
69 349 145
70 351 206
72 352 262
73 353 314
74 355 365
75 356 414
76 357 461
77 358 508
78 359 553
79 360 598
80 361 642
81 362 685
82 363 728
83 364 770
84 365 811
85 366 853
73 380 73
75 381 151
76 383 212
78 384 268
79 385 321
80 387 371
81 388 420
82 389 468
83 390 514
84 391 560
86 392 604
87 393 648
88 394 691
89 395 734
90 396 776
91 397 818
92 398 859
79 411 79
81 413 157
82 414 218
84 415 274
85 417 327
86 418 377
87 419 426
88 420 474
89 421 520
91 422 566
92 423 610
93 424 654
94 425 697
95 426 740
96 427 782
97 428 824
98 429 865
85 442 85
87 444 163
88 445 224
90 446 280
91 448 333
92 449 383
93 450 432
94 451 480
95 452 526
96 453 571
98 454 616
99 455 660
100 456 703
101 457 746
102 458 788
103 459 830
104 460 871
91 472 91
93 474 169
94 476 230
96 477 286
97 478 338
98 479 389
99 480 438
100 482 485
101 483 532
102 484 577
103 485 622
104 486 666
105 487 709
106 488 752
107 489 794
108 490 835
109 491 877
97 502 97
99 504 175
100 506 236
101 507 291
103 508 344
104 509 395
105 510 444
106 512 491
107 513 538
108 514 583
109 515 628
110 516 672
111 517 715
112 518 758
113 519 800
114 520 841
115 521 882
102 532 102
104 534 180
106 535 241
107 537 297
108 538 350
109 539 401
111 540 449
112 541 497
113 542 543
114 543 589
115 545 634
116 546 677
117 547 721
118 548 763
119 549 805
120 550 847
121 551 888
108 561 108
110 563 186
111 565 247
113 566 303
114 567 356
115 568 406
116 570 455
117 571 503
118 572 549
120 573 595
121 574 639
122 575 683
123 576 726
124 577 769
125 578 811
126 579 853
127 580 894
52 3 3
54 5 81
55 7 142
57 8 198
58 9 251
59 10 301
60 12 350
61 13 398
62 14 444
63 15 490
64 16 535
66 17 578
67 18 622
68 19 664
69 20 706
70 21 748
70 22 789
63 59 14
65 61 92
66 62 153
67 64 209
69 65 262
70 66 312
71 67 361
72 68 409
73 69 455
74 71 501
75 72 545
76 73 589
77 74 632
78 75 675
79 76 717
80 77 759
81 78 800
71 103 23
73 105 101
74 106 161
76 107 217
77 109 270
78 110 321
79 111 370
80 112 417
81 113 464
83 114 509
84 115 554
85 116 598
86 117 641
87 118 683
88 119 726
89 120 767
90 121 808
79 143 30
81 144 108
82 146 169
83 147 225
85 148 278
86 150 328
87 151 377
88 152 425
89 153 471
90 154 517
91 155 561
92 156 605
93 157 648
94 158 691
95 159 733
96 160 775
97 161 816
86 180 37
88 182 115
89 184 176
91 185 232
92 186 285
93 187 336
94 188 384
95 190 432
96 191 478
97 192 524
99 193 569
100 194 612
101 195 656
102 196 698
103 197 740
104 198 782
105 199 823
93 216 44
95 218 122
96 220 183
98 221 239
99 222 292
100 223 343
101 225 391
102 226 439
103 227 485
104 228 531
106 229 576
107 230 619
108 231 663
109 232 705
110 233 747
111 234 789
111 235 830
100 251 51
102 253 129
103 255 190
104 256 246
106 257 299
107 258 349
108 260 398
109 261 446
110 262 492
111 263 538
112 264 582
113 265 626
114 266 669
115 267 712
116 268 754
117 269 796
118 270 837
106 285 58
108 287 136
110 289 197
111 290 252
112 291 305
113 292 356
114 294 405
116 295 452
117 296 499
118 297 544
119 298 589
120 299 633
121 300 676
122 301 719
123 302 761
124 303 802
125 304 843
113 319 64
115 320 142
116 322 203
117 323 259
119 324 312
120 326 362
121 327 411
122 328 459
123 329 505
124 330 551
125 331 595
126 332 639
127 333 682
128 334 725
129 335 767
130 336 809
131 337 850
119 351 70
121 353 148
122 354 209
124 356 265
125 357 318
126 358 368
127 359 417
128 360 465
129 361 511
130 362 557
131 364 601
132 365 645
133 366 689
134 367 731
135 368 773
136 369 815
137 369 856
125 383 77
127 385 154
128 386 215
130 388 271
131 389 324
132 390 375
133 391 423
134 392 471
135 393 517
137 394 563
138 395 608
139 396 651
140 397 695
141 398 737
142 399 779
143 400 821
144 401 862
131 414 83
133 416 161
134 418 221
136 419 277
137 420 330
138 421 381
139 422 430
140 424 477
141 425 524
143 426 569
144 427 614
145 428 658
146 429 701
147 430 743
148 431 786
149 432 827
150 433 868
137 445 89
139 447 166
140 448 227
142 450 283
143 451 336
144 452 387
145 453 435
146 454 483
147 456 529
149 457 575
150 458 620
151 459 663
152 460 707
153 461 749
154 462 791
155 463 833
156 464 874
143 476 94
145 478 172
146 479 233
148 480 289
149 482 342
150 483 392
151 484 441
152 485 489
153 486 535
154 487 581
155 488 625
156 489 669
157 490 713
158 491 755
159 492 797
160 493 839
161 494 880
149 506 100
151 508 178
152 509 239
153 510 295
155 512 348
156 513 398
157 514 447
158 515 495
159 516 541
160 517 587
161 518 631
162 519 675
163 520 718
164 521 761
165 522 803
166 523 845
167 524 886
154 536 106
156 537 184
158 539 245
159 540 301
160 541 353
161 543 404
163 544 453
164 545 500
165 546 547
166 547 592
167 548 637
168 549 681
169 550 724
170 551 767
171 552 809
172 553 850
173 554 892
160 565 112
162 567 190
163 568 250
165 569 306
166 571 359
167 572 410
168 573 459
169 574 506
170 575 553
172 576 598
173 577 643
174 578 687
175 579 730
176 580 772
177 581 815
178 582 856
179 583 897
93 6 6
95 8 84
96 9 145
97 11 201
99 12 254
100 13 304
101 14 353
102 15 401
103 16 447
104 18 493
105 19 537
106 20 581
107 21 624
108 22 667
109 23 709
110 24 751
111 25 792
103 62 17
105 64 95
107 65 156
108 66 212
109 68 264
110 69 315
112 70 364
113 71 411
114 72 458
115 73 503
116 74 548
117 75 592
118 76 635
119 77 678
120 78 720
121 79 761
122 80 803
112 105 25
114 107 103
115 109 164
116 110 220
118 111 273
119 112 323
120 114 372
121 115 420
122 116 466
123 117 512
124 118 556
125 119 600
126 120 643
127 121 686
128 122 728
129 123 770
130 124 811
120 145 33
121 147 111
123 149 172
124 150 228
125 151 280
126 152 331
128 153 380
129 155 427
130 156 474
131 157 519
132 158 564
133 159 608
134 160 651
135 161 694
136 162 736
137 163 777
138 164 819
127 183 40
129 185 118
130 186 179
131 188 235
133 189 288
134 190 338
135 191 387
136 192 435
137 193 481
138 194 527
139 195 571
140 196 615
141 197 658
142 198 701
143 199 743
144 200 785
145 201 826
134 219 47
136 221 125
137 222 186
138 224 242
140 225 295
141 226 345
142 227 394
143 228 442
144 229 488
145 231 534
146 232 578
147 233 622
148 234 665
149 235 708
150 236 750
151 237 792
152 238 833
140 254 54
142 256 132
144 257 193
145 259 249
146 260 301
147 261 352
149 262 401
150 263 448
151 264 495
152 265 540
153 267 585
154 268 629
155 269 672
156 270 715
157 271 757
158 272 798
159 273 840
147 288 60
149 290 138
150 291 199
152 293 255
153 294 308
154 295 358
155 296 407
156 297 455
157 298 501
158 299 547
159 301 591
160 302 635
162 303 679
163 304 721
163 305 763
164 306 805
165 307 846
153 321 67
155 323 145
157 325 206
158 326 262
159 327 314
160 328 365
162 329 414
163 331 461
164 332 508
165 333 553
166 334 598
167 335 642
168 336 685
169 337 728
170 338 770
171 339 811
172 340 852
160 354 73
161 356 151
163 357 212
164 358 268
165 360 321
167 361 371
168 362 420
169 363 468
170 364 514
171 365 559
172 366 604
173 367 648
174 368 691
175 369 734
176 370 776
177 371 818
178 372 859
166 386 79
168 387 157
169 389 218
170 390 274
172 391 327
173 393 377
174 394 426
175 395 474
176 396 520
177 397 566
178 398 610
179 399 654
180 400 697
181 401 740
182 402 782
183 403 824
184 404 865
172 417 85
174 419 163
175 420 224
176 422 280
178 423 333
179 424 383
180 425 432
181 426 480
182 427 526
183 428 572
184 429 616
185 431 660
186 432 703
187 433 746
188 434 788
189 434 830
190 435 871
178 448 91
180 450 169
181 451 230
182 452 286
184 454 339
185 455 389
186 456 438
187 457 486
188 458 532
189 459 578
190 460 622
191 461 666
192 462 709
193 463 752
194 464 794
195 465 836
196 466 877
184 478 97
185 480 175
187 482 236
188 483 292
189 484 345
191 485 395
192 487 444
193 488 492
194 489 538
195 490 583
196 491 628
197 492 672
198 493 715
199 494 758
200 495 800
201 496 842
202 497 883
189 508 103
191 510 181
193 512 242
194 513 298
195 514 350
196 515 401
198 517 450
199 518 497
200 519 544
201 520 589
202 521 634
203 522 678
204 523 721
205 524 764
206 525 806
207 526 847
208 527 889
195 538 109
197 540 187
198 541 247
200 543 303
201 544 356
202 545 407
203 546 456
204 547 503
206 549 550
207 550 595
208 551 640
209 552 684
210 553 727
211 554 769
212 555 812
213 556 853
214 557 894
201 568 114
203 569 192
204 571 253
205 572 309
207 573 362
208 575 412
209 576 461
210 577 509
211 578 555
212 579 601
213 580 645
214 581 689
215 582 732
216 583 775
217 584 817
218 585 859
219 586 900
130 9 9
132 10 87
133 12 147
135 13 203
136 14 256
137 16 307
138 17 356
139 18 403
140 19 450
141 20 495
142 21 540
143 22 584
144 23 627
145 24 669
146 25 712
147 26 753
148 27 794
141 64 19
143 66 97
144 68 158
145 69 214
147 70 267
148 71 317
149 72 366
150 74 414
151 75 460
152 76 506
153 77 550
154 78 594
155 79 638
156 80 680
157 81 722
158 82 764
