blink/scripts/LUTApply_exampleGrade.3dl
# Generated by Nuke for flame
# Dimensions 17x17x17
# Input bit depth 10
# Output bit depth 10
0 128 256 384 512 639 767 895 1023
0 0 0
3 3 139
6 6 247
8 8 347
10 10 441
12 12 531
15 15 618
16 16 703
18 18 786
19 99 19
22 103 158
25 105 267
27 107 366
29 110 460
32 112 550
34 114 637
36 116 722
38 118 805
34 177 34
37 180 173
40 183 282
42 185 381
44 187 475
47 189 565
49 191 652
51 193 737
52 195 820
48 248 48
51 251 187
54 254 295
56 256 395
58 258 489
60 260 579
62 262 666
64 264 751
66 266 833
61 315 61
64 318 200
66 321 308
69 323 408
71 325 502
73 328 592
75 330 679
77 332 764
79 334 846
73 380 73
76 383 212
79 385 321
81 388 420
83 390 514
86 392 604
88 394 691
90 396 776
92 398 859
85 442 85
88 445 224
91 448 333
93 450 432
95 452 526
98 454 616
100 456 703
102 458 788
104 460 871
97 502 97
100 506 236
103 508 344
105 510 444
107 513 538
109 515 628
111 517 715
113 519 800
115 521 882
108 561 108
111 565 247
114 567 356
116 570 455
118 572 549
121 574 639
123 576 726
125 578 811
127 580 894
93 6 6
96 9 145
99 12 254
101 14 353
103 16 447
105 19 537
107 21 624
109 23 709
111 25 792
112 105 25
115 109 164
118 111 273
120 114 372
122 116 466
124 118 556
126 120 643
128 122 728
130 124 811
127 183 40
130 186 179
133 189 288
135 191 387
137 193 481
139 195 571
141 197 658
143 199 743
145 201 826
140 254 54
144 257 193
146 260 301
149 262 401
151 264 495
153 267 585
155 269 672
157 271 757
159 273 840
153 321 67
157 325 206
159 327 314
162 329 414
164 332 508
166 334 598
168 336 685
170 338 770
172 340 852
166 386 79
169 389 218
172 391 327
174 394 426
176 396 520
178 398 610
180 400 697
182 402 782
184 404 865
178 448 91
181 451 230
184 454 339
186 456 438
188 458 532
190 460 622
192 462 709
194 464 794
196 466 877
189 508 103
193 512 242
195 514 350
198 517 450
200 519 544
202 521 634
204 523 721
206 525 806
208 527 889
201 568 114
204 571 253
207 573 362
209 576 461
211 578 555
213 580 645
215 582 732
217 584 817
219 586 900
165 11 11
168 14 150
171 17 258
173 19 358
176 21 452
178 23 542
180 25 629
182 27 714
184 29 797
184 110 30
188 113 169
190 116 278
192 118 377
195 121 471
197 123 561
199 125 648
201 127 733
203 129 816
199 188 45
202 191 184
205 194 292
207 196 392
210 198 486
212 200 576
214 202 663
216 204 748
218 206 831
213 259 59
216 262 198
219 265 306
221 267 406
223 269 500
225 271 590
227 273 677
229 275 762
231 277 844
226 326 72
229 329 210
232 332 319
234 334 419
236 336 513
238 339 603
240 341 690
242 343 775
244 344 857
238 390 84
242 394 223
244 396 331
246 399 431
249 401 525
251 403 615
253 405 702
255 407 787
257 409 870
250 453 96
254 456 235
256 459 343
258 461 443
261 463 537
263 465 627
265 467 714
267 469 799
269 471 882
262 513 108
265 517 247
268 519 355
270 521 455
272 524 549
274 526 639
276 528 726
278 530 811
280 532 893
273 572 119
277 576 258
279 578 367
281 581 466
284 583 560
286 585 650
288 587 737
290 589 822
292 591 905
232 15 15
235 19 154
237 21 263
240 23 362
242 26 456
244 28 546
246 30 634
248 32 718
250 34 801
251 115 34
254 118 173
257 120 282
259 123 381
261 125 475
263 127 565
265 129 653
267 131 737
269 133 820
266 192 49
269 195 188
271 198 297
274 200 396
276 203 490
278 205 580
280 207 668
282 209 752
284 211 835
279 263 63
283 267 202
285 269 311
287 271 410
290 274 504
292 276 594
294 278 681
296 280 766
298 282 849
292 330 76
296 334 215
298 336 323
300 339 423
303 341 517
305 343 607
307 345 694
309 347 779
311 349 862
305 395 88
308 398 227
310 401 336
313 403 435
315 405 529
317 407 619
319 409 707
321 411 791
323 413 874
317 457 100
320 460 239
322 463 348
325 465 447
327 467 541
329 470 631
331 472 719
333 474 803
335 476 886
328 518 112
332 521 251
334 523 360
336 526 459
339 528 553
341 530 643
343 532 730
345 534 815
347 536 898
340 577 123
343 580 262
346 583 371
348 585 470
350 587 564
352 589 654
354 591 742
356 593 826
358 595 909
294 19 19
298 23 158
300 25 267
302 28 366
305 30 460
307 32 551
309 34 638
311 36 722
313 38 805
313 119 39
317 122 177
319 125 286
322 127 386
324 129 480
326 131 570
328 133 657
330 135 742
332 137 824
328 196 54
332 200 192
334 202 301
337 204 400
339 207 494
341 209 585
343 211 672
345 213 756
347 215 839
342 267 67
345 271 206
348 273 315
350 276 414
352 278 508
355 280 598
357 282 685
359 284 770
361 286 853
355 335 80
358 338 219
361 340 328
363 343 427
365 345 521
367 347 611
370 349 698
371 351 783
373 353 866
367 399 93
371 402 231
373 405 340
376 407 440
378 409 533
380 411 624
382 413 711
384 415 795
386 417 878
379 461 105
383 465 243
385 467 352
388 469 451
390 472 545
392 474 636
394 476 723
396 478 807
398 480 890
391 522 116
394 525 255
397 528 364
399 530 463
401 532 557
404 534 647
406 536 734
408 538 819
409 540 902
402 581 128
406 584 266
408 587 375
411 589 475
413 591 569
415 593 659
417 595 746
419 597 831
421 599 913
354 23 23
358 27 162
360 29 271
363 32 370
365 34 464
367 36 555
369 38 642
371 40 726
373 42 809
374 123 43
377 126 181
379 129 290
382 131 390
384 133 484
386 135 574
388 137 661
390 139 746
392 141 828
389 200 58
392 204 196
394 206 305
397 208 404
399 211 498
401 213 589
403 215 676
405 217 760
407 219 843
402 271 71
405 275 210
408 277 319
410 280 418
413 282 512
415 284 602
417 286 689
419 288 774
421 290 857
415 339 84
418 342 223
421 344 332
423 347 431
425 349 525
428 351 615
430 353 702
432 355 787
434 357 870
428 403 97
431 406 235
433 409 344
436 411 443
438 413 537
440 415 628
442 417 715
444 419 799
446 421 882
440 465 109
443 468 247
445 471 356
448 473 455
450 476 549
452 478 640
454 480 727
456 482 811
458 484 894
451 526 120
454 529 259
457 532 368
459 534 467
462 536 561
464 538 651
466 540 738
468 542 823
470 544 906
463 585 132
466 588 270
468 591 379
471 593 479
473 595 573
475 597 663
477 599 750
479 601 835
481 603 917
413 27 27
416 31 166
418 33 275
421 35 374
423 38 468
425 40 558
427 42 646
429 44 730
431 46 813
432 127 46
435 130 185
438 132 294
440 135 393
442 137 487
444 139 577
446 141 665
448 143 749
450 145 832
447 204 61
450 207 200
452 210 309
455 212 408
457 214 502
459 217 592
461 219 680
463 221 764
465 223 847
460 275 75
464 279 214
466 281 323
469 283 422
471 286 516
473 288 606
475 290 693
477 292 778
479 294 861
473 342 88
477 346 227
479 348 335
481 351 435
484 353 529
486 355 619
488 357 706
490 359 791
492 361 874
486 407 100
489 410 239
492 413 348
494 415 447
496 417 541
498 419 631
500 421 719
502 423 803
504 425 886
498 469 112
501 472 251
504 475 360
506 477 459
508 479 553
510 482 643
512 484 731
514 486 815
516 488 898
509 530 124
513 533 263
515 535 371
518 538 471
520 540 565
522 542 655
524 544 742
526 546 827
528 548 910
521 589 135
524 592 274
527 595 383
529 597 482
531 599 576
533 601 666
535 603 754
537 605 838
539 607 921
469 31 31
472 34 170
475 37 279
477 39 378
480 41 472
482 44 562
484 46 649
486 48 734
488 49 817
488 130 50
492 134 189
494 136 298
496 138 397
499 141 491
501 143 581
503 145 668
505 147 753
507 149 836
503 208 65
507 211 204
509 214 313
511 216 412
514 218 506
516 220 596
518 222 683
520 224 768
522 226 851
517 279 79
520 282 218
523 285 326
525 287 426
527 289 520
529 291 610
531 293 697
533 295 782
535 297 864
530 346 92
533 349 231
536 352 339
538 354 439
540 357 533
542 359 623
544 361 710
546 363 795
548 365 877
542 411 104
546 414 243
548 416 352
550 419 451
553 421 545
555 423 635
557 425 722
559 427 807
561 429 890
554 473 116
558 476 255
560 479 364
562 481 463
565 483 557
567 485 647
569 487 734
571 489 819
573 491 902
566 533 128
569 537 267
572 539 375
574 542 475
576 544 569
578 546 659
580 548 746
582 550 831
584 552 913
577 593 139
581 596 278
583 598 387
585 601 486
588 603 580
590 605 670
592 607 757
594 609 842
596 611 925
524 35 35
528 38 174
530 40 282
533 43 382
535 45 476
537 47 566
539 49 653
541 51 738
543 53 820
544 134 54
547 137 193
549 140 301
552 142 401
554 144 495
556 146 585
558 148 672
560 150 757
562 152 839
558 212 69
562 215 208
564 217 316
567 220 416
569 222 510
571 224 600
573 226 687
575 228 772
577 230 854
572 283 82
575 286 221
578 288 330
580 291 429
583 293 523
585 295 614
587 297 701
589 299 785
591 301 868
585 350 95
588 353 234
591 356 343
593 358 442
595 360 536
598 362 626
600 364 714
602 366 798
604 368 881
598 414 108
601 417 247
603 420 355
606 422 455
608 425 549
610 427 639
612 429 726
614 431 811
616 433 893
609 476 120
613 480 259
615 482 367
618 485 467
620 487 561
622 489 651
624 491 738
626 493 823
628 495 905
621 537 131
624 540 270
627 543 379
629 545 478
632 547 572
634 549 662
636 552 750
638 554 834
640 555 917
633 596 143
636 599 282
638 602 390
641 604 490
643 607 584
645 609 674
647 611 761
649 613 846
651 615 928
