blink/scripts/LUTInverse_inverseGrade.3dl
# Generated by Nuke for flame
# Dimensions 17x17x17
# Input bit depth 10
# Output bit depth 10
0 128 256 384 512 639 767 895 1023
102 84 57
107 91 141
109 95 266
110 96 420
109 96 588
107 95 753
107 98 882
133 128 928
156 159 951
105 193 58
104 201 131
105 204 253
106 203 404
105 201 572
103 199 739
101 203 873
122 232 928
149 271 949
108 358 59
103 372 122
104 376 235
105 375 382
104 372 547
102 370 713
100 375 851
113 398 920
138 431 945
108 549 58
99 571 111
100 576 217
101 574 359
101 571 522
99 569 687
97 574 829
104 591 911
126 610 942
107 721 57
97 748 104
98 752 203
98 750 341
98 747 501
97 746 666
95 751 811
98 760 903
118 762 940
114 827 60
107 845 108
107 849 201
108 849 334
107 847 492
106 847 655
104 852 797
105 857 891
119 855 936
120 888 63
122 894 116
123 896 206
123 897 334
121 896 491
121 896 651
120 898 786
121 903 878
124 908 931
104 947 52
114 943 109
117 943 198
115 944 327
114 944 487
113 942 655
116 942 788
115 945 880
108 955 941
43 1023 14
38 1013 61
46 1009 166
50 1009 321
53 1008 482
52 1008 660
54 1006 822
57 1007 922
34 1015 990
228 89 57
228 94 137
228 97 261
226 98 415
223 97 583
220 96 750
219 98 883
240 129 930
266 164 950
215 197 53
212 204 125
212 207 247
210 206 399
207 204 567
203 201 737
200 203 878
221 235 933
252 278 950
201 370 52
192 384 112
192 388 227
191 386 376
189 383 542
185 380 712
181 383 859
197 407 930
232 442 948
186 570 50
171 596 98
171 600 206
170 598 350
168 594 515
165 591 685
160 595 838
170 610 926
209 627 947
177 748 49
153 789 86
153 792 188
153 789 329
151 786 492
148 785 662
143 789 820
146 798 924
190 784 947
187 846 54
172 873 95
172 877 190
171 877 325
168 876 485
165 877 652
159 882 804
161 887 907
192 872 942
206 894 62
205 902 113
205 905 202
204 905 331
202 905 487
200 905 648
197 908 788
199 912 882
211 912 931
199 942 57
210 940 113
213 939 203
212 939 329
210 939 487
210 938 650
210 938 783
211 942 875
207 950 934
133 1009 15
159 1004 75
160 1004 167
159 1002 309
156 1000 475
152 998 652
157 994 811
160 994 911
143 1006 976
420 93 57
421 97 133
419 100 255
415 101 407
411 101 574
408 99 741
407 101 875
416 129 928
428 166 949
404 197 53
403 203 121
401 206 241
398 206 391
394 203 559
390 201 729
387 202 871
396 233 931
412 281 949
377 369 52
373 382 108
371 386 222
368 385 369
365 382 534
361 380 704
357 382 853
365 406 928
386 445 947
348 570 50
339 595 95
338 599 201
335 598 344
332 595 508
328 592 678
323 595 833
329 611 925
357 631 947
327 749 48
311 790 82
310 793 182
308 791 323
305 789 485
300 787 655
295 791 815
297 800 923
332 789 948
330 849 53
318 878 91
317 883 184
315 883 319
311 882 478
306 883 645
300 888 801
301 895 908
332 878 943
347 895 61
346 904 110
346 908 198
345 908 326
342 908 482
338 909 643
335 912 785
337 916 882
352 914 931
347 940 58
358 938 112
361 938 200
359 939 325
356 939 482
355 937 644
356 938 778
357 941 871
359 948 930
297 1007 17
317 999 80
324 998 164
319 996 306
315 995 470
312 993 648
316 989 804
318 991 900
306 1000 967
636 93 56
640 96 128
636 99 248
631 101 399
626 100 566
623 99 733
623 100 869
618 127 927
609 166 949
622 193 52
626 197 116
623 201 234
618 201 384
614 199 551
611 196 721
610 196 866
607 227 931
597 279 949
589 363 51
593 376 104
590 380 215
586 379 361
582 376 526
579 373 696
577 375 847
577 398 927
574 443 947
554 564 49
556 588 91
554 593 194
551 591 336
547 588 500
543 586 670
540 588 826
541 603 923
547 628 947
528 744 47
526 784 78
524 788 176
521 786 315
517 784 477
513 782 647
509 785 808
509 795 920
526 789 948
520 848 51
519 879 86
519 884 177
516 884 310
512 884 469
507 884 637
503 889 794
504 896 907
521 880 944
524 895 60
528 906 106
529 909 192
527 910 319
524 910 474
520 910 636
518 914 780
521 918 880
530 916 930
531 938 56
536 936 111
537 937 198
536 937 321
533 937 476
531 936 638
530 937 772
534 939 867
541 945 927
540 1005 18
542 994 76
549 992 167
546 992 300
541 991 461
536 990 642
537 987 792
546 988 892
551 996 961
807 98 57
813 99 125
809 103 244
804 104 393
801 104 559
800 102 726
802 103 864
785 128 926
758 168 948
802 195 51
815 197 111
811 201 228
807 201 377
804 199 544
803 196 714
806 195 863
788 226 932
754 282 949
774 365 49
790 375 99
788 379 208
784 379 354
781 375 519
779 372 690
781 372 843
772 395 929
742 446 948
743 564 48
763 586 85
761 591 187
757 590 329
754 587 492
751 583 662
752 584 821
749 599 924
728 630 948
720 744 46
740 784 73
739 788 169
735 787 306
732 784 468
728 781 639
727 783 802
727 793 920
717 792 950
704 851 49
722 885 79
723 890 168
721 890 301
717 889 460
714 890 628
713 894 788
714 902 907
711 887 946
694 898 58
703 910 101
705 914 186
704 915 312
701 914 467
699 915 629
699 918 776
702 922 880
702 920 931
698 938 56
697 937 110
698 938 194
698 938 317
696 938 471
693 937 633
692 938 769
695 940 865
702 945 923
743 993 21
735 988 81
735 988 168
733 988 296
727 987 458
723 986 635
717 981 786
722 981 881
736 991 948
869 128 71
874 131 137
872 135 248
871 135 392
870 134 556
870 132 716
872 134 845
864 152 914
849 181 946
871 227 63
879 234 123
878 238 232
877 238 376
876 235 540
877 232 705
880 233 843
871 257 917
847 301 945
862 388 57
876 401 108
875 406 212
874 406 353
873 403 516
874 399 683
877 401 830
871 421 916
843 465 944
851 579 52
872 601 91
873 607 189
871 606 327
870 603 488
870 600 657
873 601 812
872 615 915
842 644 945
841 751 48
873 788 76
874 794 168
872 792 304
870 790 464
870 788 634
872 790 796
876 799 916
846 801 949
829 854 50
857 888 79
861 895 166
860 895 297
859 895 455
859 896 623
862 900 784
867 909 907
843 893 947
813 901 57
824 913 100
827 917 184
826 918 309
825 918 464
824 919 626
827 922 774
830 926 879
824 924 931
815 942 55
816 941 107
814 941 192
813 942 314
812 941 468
809 940 630
809 941 767
812 944 864
815 948 924
882 995 24
858 990 80
854 988 167
852 989 297
849 987 459
845 985 632
839 981 781
839 982 882
852 990 949
904 156 81
904 164 148
904 168 253
904 168 393
903 167 554
903 167 707
904 170 827
903 181 901
907 193 946
902 265 76
904 277 138
903 283 240
903 284 378
902 282 538
902 281 694
904 286 820
902 303 897
899 328 940
897 423 70
901 438 126
901 446 223
900 447 358
900 445 516
900 444 675
902 449 808
900 467 892
893 497 935
893 600 63
900 620 112
901 628 204
900 629 335
900 627 492
900 626 654
902 630 795
902 644 889
892 665 934
891 754 58
902 776 100
904 784 187
903 785 316
903 783 473
903 783 636
905 787 785
907 797 888
896 802 936
887 851 57
898 869 98
901 875 183
900 876 309
900 876 464
900 877 628
903 881 777
906 888 884
897 886 935
883 905 58
886 912 106
888 915 190
887 915 313
887 915 467
886 916 627
888 918 770
890 923 871
888 924 927
896 953 49
890 948 103
888 948 189
887 948 311
887 948 466
885 946 631
883 946 768
884 948 866
889 954 927
964 1009 14
945 1003 65
943 999 158
935 998 288
934 996 449
931 995 627
924 992 789
921 992 891
936 997 957
952 155 73
949 170 141
948 174 244
948 172 389
947 171 556
945 174 712
944 179 828
949 184 909
963 180 965
944 280 72
940 298 138
939 306 237
940 307 374
939 304 538
936 306 693
936 314 815
939 326 897
951 335 951
937 451 68
933 469 129
932 478 224
932 481 355
932 479 516
930 480 673
929 488 798
931 505 883
937 528 938
929 626 64
927 640 121
927 648 211
926 650 338
926 649 495
925 648 654
924 654 784
925 668 874
928 688 929
927 766 61
926 776 114
925 781 200
925 783 325
925 782 480
924 781 640
924 785 775
925 795 870
925 807 926
928 857 57
926 863 110
926 867 194
925 868 317
925 867 472
924 866 633
924 869 771
926 875 868
926 882 925
936 921 51
930 918 106
928 920 190
928 920 313
928 919 469
926 918 632
924 918 769
925 922 865
930 929 926
960 978 31
952 967 87
947 967 175
947 967 303
946 965 459
944 963 633
939 961 777
938 962 875
948 970 939
1023 1023 0
1023 1023 30
1023 1023 155
1007 1023 266
1006 1023 446
1002 1023 626
1001 1017 800
991 1012 933
1008 1023 981
1023 75 19
1023 98 88
1023 108 233
1023 101 395
1023 104 556
1023 106 743
1018 112 891
1023 115 969
1023 64 1023
1011 267 19
1008 274 93
1008 280 208
1006 272 362
1006 275 533
1005 273 716
1003 289 854
1005 298 941
1023 299 1001
1001 469 33
993 496 89
992 503 191
992 499 337
991 497 504
989 492 682
987 501 825
988 518 916
999 538 981
992 680 33
978 690 96
978 696 186
977 697 320
976 693 484
974 689 658
970 693 799
971 707 890
981 732 953
977 818 37
971 812 96
967 818 186
968 818 314
966 816 472
965 812 646
961 811 783
962 819 877
970 839 942
979 905 35
973 895 91
969 896 179
968 897 307
968 895 465
966 891 638
962 889 779
962 892 876
969 908 939
997 971 24
984 957 75
982 955 165
981 956 297
979 954 460
977 953 630
974 946 785
972 948 885
979 961 946
1023 1023 0
1023 1023 57
1015 1015 128
1009 1009 273
1009 1006 440
1008 1007 623
1007 1007 791
1007 1007 909
1007 1007 981
1023 1023 0
1023 1023 0
1023 1023 128
1023 1023 256
1023 1023 448
1023 1023 639
1023 1023 831
1023 1023 1023
1023 1023 1023
