blink/scripts/LUTInverse_inverseGrade.3dl
# Generated by Nuke for flame
# Dimensions 17x17x17
# Input bit depth 10
# Output bit depth 10
0 256 512 767 1023
102 84 57
109 95 266
109 96 588
107 98 882
156 159 951
108 358 59
104 376 235
104 372 547
100 375 851
138 431 945
107 721 57
98 752 203
98 747 501
95 751 811
118 762 940
120 888 63
123 896 206
121 896 491
120 898 786
124 908 931
43 1023 14
46 1009 166
53 1008 482
54 1006 822
34 1015 990
420 93 57
419 100 255
411 101 574
407 101 875
428 166 949
377 369 52
371 386 222
365 382 534
357 382 853
386 445 947
327 749 48
310 793 182
305 789 485
295 791 815
332 789 948
347 895 61
346 908 198
342 908 482
335 912 785
352 914 931
297 1007 17
324 998 164
315 995 470
316 989 804
306 1000 967
807 98 57
809 103 244
801 104 559
802 103 864
758 168 948
774 365 49
788 379 208
781 375 519
781 372 843
742 446 948
720 744 46
739 788 169
732 784 468
727 783 802
717 792 950
694 898 58
705 914 186
701 914 467
699 918 776
702 920 931
743 993 21
735 988 168
727 987 458
717 981 786
736 991 948
904 156 81
904 168 253
903 167 554
904 170 827
907 193 946
897 423 70
901 446 223
900 445 516
902 449 808
893 497 935
891 754 58
904 784 187
903 783 473
905 787 785
896 802 936
883 905 58
888 915 190
887 915 467
888 918 770
888 924 927
964 1009 14
943 999 158
934 996 449
924 992 789
936 997 957
1023 75 19
1023 108 233
1023 104 556
1018 112 891
1023 64 1023
1001 469 33
992 503 191
991 497 504
987 501 825
999 538 981
977 818 37
967 818 186
966 816 472
961 811 783
970 839 942
997 971 24
982 955 165
979 954 460
974 946 785
979 961 946
1023 1023 0
1023 1023 128
1023 1023 448
1023 1023 831
1023 1023 1023
