blink/scripts/LUTInverse_inverseGrade.3dl
# Generated by Nuke for flame
# Dimensions 17x17x17
# Input bit depth 10
# Output bit depth 10
0 64 128 192 256 320 384 448 512 575 639 703 767 831 895 959 1023 
102 84 57
106 89 93
107 91 141
108 93 199
109 95 266
110 96 340
110 96 420
109 96 503
109 96 588
108 95 672
107 95 753
106 95 826
107 98 882
117 110 913
133 128 928
147 146 940
156 159 951
103 130 57
104 134 90
104 136 136
105 138 194
106 139 260
106 139 334
106 139 413
106 138 496
105 138 582
104 137 667
103 136 749
102 136 822
102 139 881
111 151 914
127 171 929
142 191 940
153 208 950
105 193 58
103 198 87
104 201 131
105 203 187
105 204 253
106 204 326
106 203 404
105 202 487
105 201 572
104 200 657
103 199 739
101 199 813
101 203 873
107 214 910
122 232 928
137 252 939
149 271 949
107 271 58
103 277 84
103 281 126
104 283 181
105 284 244
105 284 316
105 283 394
105 282 476
105 281 560
104 279 645
103 279 727
101 279 801
101 283 863
105 293 904
117 309 925
132 328 937
144 346 947
108 358 59
103 367 82
103 372 122
103 375 173
104 376 235
104 376 306
105 375 382
104 374 464
104 372 547
103 371 632
102 370 713
101 371 788
100 375 851
103 384 896
113 398 920
126 414 935
138 431 945
108 453 59
102 465 80
101 471 116
102 474 166
102 475 226
103 475 295
103 474 371
103 472 451
103 471 534
102 469 618
101 469 700
100 470 776
99 474 840
100 482 888
108 494 916
121 507 932
132 521 944
108 549 58
101 563 77
99 571 111
100 575 159
100 576 217
101 576 285
101 574 359
101 573 439
101 571 522
100 570 605
99 569 687
98 571 763
97 574 829
98 581 880
104 591 911
115 600 930
126 610 942
107 641 58
100 657 75
97 666 107
98 670 152
98 671 209
99 670 275
99 669 349
99 667 428
99 666 510
99 665 594
98 664 676
97 666 752
95 669 819
96 675 872
101 682 907
110 687 928
121 692 941
107 721 57
100 738 74
97 748 104
97 751 148
98 752 203
98 751 268
98 750 341
98 749 419
98 747 501
98 746 584
97 746 666
96 747 743
95 751 811
95 756 865
98 760 903
107 762 926
118 762 940
109 782 58
103 798 76
100 807 104
100 810 147
100 811 200
101 811 264
101 810 336
101 809 413
101 808 495
100 807 578
99 807 659
98 809 736
97 812 804
97 816 859
100 819 898
107 818 923
117 816 938
114 827 60
109 838 79
107 845 108
107 848 149
107 849 201
108 849 264
108 849 334
107 848 411
107 847 492
107 847 574
106 847 655
105 849 730
104 852 797
103 855 852
105 857 891
111 857 918
119 855 936
118 860 62
117 867 83
116 872 113
116 874 153
116 875 204
116 875 265
116 875 334
115 875 411
115 874 491
114 874 573
114 874 652
113 876 726
112 878 791
112 881 844
114 883 884
117 883 912
122 884 933
120 888 63
122 891 86
122 894 116
123 895 156
123 896 206
123 896 266
123 897 334
122 897 410
121 896 491
121 896 573
121 896 651
120 897 723
120 898 786
120 900 838
121 903 878
122 905 908
124 908 931
116 916 61
120 916 85
122 917 116
124 918 156
124 918 205
124 918 264
123 919 333
122 919 409
122 918 490
122 918 573
122 917 651
122 917 723
123 918 785
123 920 836
123 922 876
122 926 908
120 929 933
104 947 52
111 944 77
114 943 109
116 943 149
117 943 198
116 944 258
115 944 327
115 944 404
114 944 487
113 943 572
113 942 655
115 942 726
116 942 788
116 942 839
115 945 880
113 949 914
108 955 941
78 982 38
87 978 61
92 976 93
93 975 136
93 975 186
92 976 246
93 975 320
91 974 397
92 975 484
90 974 569
92 973 656
93 971 736
97 970 801
96 970 851
96 973 898
91 976 929
83 985 957
43 1023 14
35 1015 33
38 1013 61
49 1010 106
46 1009 166
50 1010 232
50 1009 321
50 1009 390
53 1008 482
49 1008 555
52 1008 660
52 1007 743
54 1006 822
59 1007 883
57 1007 922
53 1012 961
34 1015 990
154 86 56
155 90 91
156 92 138
156 94 197
157 95 264
157 96 338
156 96 418
155 95 501
154 95 586
153 94 671
151 94 753
149 93 827
150 96 885
160 108 916
177 128 930
192 147 941
204 162 951
150 131 54
150 134 86
150 136 133
150 138 191
150 139 257
150 139 332
149 139 411
148 138 494
147 137 580
146 136 666
144 135 749
142 134 825
142 136 886
151 149 919
168 171 933
186 193 942
199 212 951
147 196 54
145 200 82
145 203 127
145 205 184
145 205 250
145 205 323
144 204 402
144 203 485
142 202 570
141 201 656
139 199 739
137 199 816
136 202 879
143 213 917
161 233 932
178 255 941
193 275 950
144 275 54
139 282 78
139 286 121
139 288 176
140 288 240
140 288 313
139 287 391
139 286 473
138 284 558
136 283 644
134 282 727
132 282 805
130 285 870
135 294 913
152 312 930
170 332 940
185 352 948
142 366 53
133 376 74
133 381 114
133 383 167
134 384 230
134 383 301
134 382 379
133 381 460
132 379 545
131 377 631
129 376 714
127 377 792
125 380 859
128 388 907
143 403 927
162 421 938
177 438 947
139 464 53
126 478 70
126 483 108
127 486 159
127 487 220
128 486 290
128 485 366
127 483 447
127 481 531
126 480 617
124 479 700
122 479 779
120 483 848
121 490 899
134 502 925
152 516 937
169 529 946
136 563 52
122 581 67
121 588 102
121 591 150
122 592 210
122 591 279
122 590 354
122 588 435
122 586 518
121 584 603
120 584 687
118 584 767
116 588 837
116 594 891
126 603 922
143 612 936
160 620 945
134 657 52
119 679 65
117 688 96
116 691 143
117 692 201
118 691 268
118 689 343
118 687 423
117 686 506
117 684 591
115 683 675
114 684 755
112 688 827
111 693 884
118 699 919
135 702 935
152 704 945
133 739 52
118 763 64
114 774 92
114 777 137
114 777 194
115 776 260
115 775 334
115 773 413
115 771 496
114 770 581
113 769 665
112 771 745
109 774 818
108 779 877
114 782 915
129 779 934
147 775 944
136 799 53
123 821 67
118 832 93
118 835 137
118 835 192
119 835 257
119 834 329
119 832 408
118 831 490
117 831 574
116 831 658
114 832 737
112 836 810
111 840 869
115 842 910
129 836 931
145 828 943
143 839 57
135 854 73
132 862 101
131 865 142
131 866 195
131 866 258
131 865 329
131 865 407
130 864 488
129 864 572
128 865 654
126 866 732
124 870 802
123 873 859
126 875 900
136 871 925
149 865 939
152 867 60
148 876 80
146 881 108
146 884 149
146 885 200
146 885 261
146 885 331
145 885 408
144 884 489
143 884 571
142 885 651
140 887 727
139 889 794
139 892 849
141 893 889
147 892 916
156 890 935
158 891 63
157 895 85
157 898 114
158 900 154
158 901 204
158 902 264
158 902 333
157 902 409
156 901 489
155 901 571
154 901 650
153 902 723
153 904 787
152 906 840
154 908 880
157 909 910
161 910 931
157 916 62
161 916 85
163 918 117
163 918 156
164 919 206
164 919 265
163 919 333
162 919 408
161 919 490
161 918 572
161 918 650
161 918 721
160 919 784
161 921 835
161 924 876
162 926 907
162 930 931
147 943 55
154 942 81
157 941 112
160 941 152
160 941 202
159 941 261
158 942 329
157 941 405
157 941 488
157 940 572
157 940 652
157 939 723
159 939 785
159 940 836
159 942 877
158 947 910
154 952 937
123 978 40
134 974 67
137 971 100
139 970 141
142 971 190
142 970 249
140 970 322
138 970 398
139 969 483
137 968 568
139 967 658
140 966 730
143 965 794
143 965 848
144 968 890
138 971 922
133 978 953
79 1011 13
82 1007 40
95 1005 66
96 1005 113
96 1006 169
97 1006 236
99 1005 310
97 1005 394
100 1005 479
100 1004 563
98 1002 658
97 1001 744
101 999 815
103 999 876
101 1000 915
97 1004 949
82 1010 983
228 89 57
228 92 90
228 94 137
228 96 194
228 97 261
227 98 335
226 98 415
225 98 498
223 97 583
222 97 668
220 96 750
218 95 824
219 98 883
227 109 915
240 129 930
255 148 941
266 164 950
221 133 54
221 136 85
221 138 131
221 140 188
220 141 255
219 141 329
218 140 408
217 140 491
215 139 577
213 137 663
211 136 746
209 136 822
209 138 884
216 150 919
231 172 933
247 194 942
260 214 950
215 197 53
213 201 81
212 204 125
212 206 181
212 207 247
211 207 320
210 206 399
209 205 482
207 204 567
206 202 653
203 201 737
201 201 814
200 203 878
206 214 917
221 235 933
238 258 942
252 278 950
208 278 53
203 284 76
203 288 118
203 290 173
203 291 237
202 291 310
201 290 388
200 288 470
199 287 555
197 285 641
195 284 725
192 284 803
191 287 869
194 296 913
209 314 931
227 335 941
243 356 949
201 370 52
193 379 72
192 384 112
192 387 164
192 388 227
192 387 298
191 386 376
190 384 457
189 383 542
187 381 628
185 380 712
183 380 791
181 383 859
183 391 908
197 407 930
215 425 940
232 442 948
193 469 51
182 483 67
182 489 105
181 492 155
181 492 217
181 492 286
181 490 363
180 489 444
179 487 528
177 485 614
175 484 698
173 485 778
170 488 849
171 495 902
183 507 928
202 521 939
220 535 947
186 570 50
172 588 64
171 596 98
171 599 146
171 600 206
170 599 275
170 598 350
169 596 431
168 594 515
167 592 600
165 591 685
163 592 766
160 595 838
160 601 895
170 610 926
190 619 939
209 627 947
180 666 49
164 689 61
161 699 91
160 702 138
161 703 196
161 702 264
160 700 339
160 698 419
159 697 502
157 695 588
156 695 673
153 695 754
151 698 829
149 704 889
157 710 925
177 712 939
198 712 947
177 748 49
159 776 59
153 789 86
153 792 131
153 792 188
153 791 255
153 789 329
152 788 409
151 786 492
150 785 577
148 785 662
146 786 745
143 789 820
141 794 883
146 798 924
168 791 939
190 784 947
179 808 50
163 834 61
156 848 86
155 851 130
155 851 185
155 851 251
154 850 324
153 849 403
152 848 486
151 848 570
148 849 655
146 850 737
143 854 813
140 859 876
143 862 921
165 849 937
188 837 946
187 846 54
177 863 69
172 873 95
172 876 137
172 877 190
171 877 254
171 877 325
170 876 403
168 876 485
167 876 569
165 877 652
162 879 731
159 882 804
158 886 864
161 887 907
175 881 929
192 872 942
198 872 59
193 882 77
191 888 105
190 891 145
190 892 197
190 892 258
189 892 328
188 892 405
187 892 486
185 892 568
184 892 650
182 894 726
180 897 795
179 900 852
182 901 893
190 899 919
202 895 936
206 894 62
206 898 83
205 902 113
205 904 152
205 905 202
205 905 262
204 905 331
203 905 407
202 905 487
201 905 569
200 905 648
199 906 722
197 908 788
197 911 841
199 912 882
204 913 911
211 912 931
208 916 63
211 917 86
213 918 116
214 919 156
215 920 205
214 920 264
214 920 332
212 920 407
211 920 488
210 920 570
210 920 648
209 920 720
209 921 783
209 923 835
210 925 875
213 927 906
214 930 930
199 942 57
206 940 83
210 940 113
212 939 154
213 939 203
213 940 261
212 939 329
211 940 404
210 939 487
209 939 571
210 938 650
210 938 721
210 938 783
211 940 834
211 942 875
212 945 907
207 950 934
182 974 43
189 970 71
194 968 103
199 968 142
197 967 192
196 967 251
196 967 321
195 965 400
195 965 483
193 965 567
193 963 654
196 962 729
197 961 791
198 962 842
198 964 886
196 970 917
189 975 948
133 1009 15
151 1005 40
159 1004 75
160 1003 118
160 1004 167
155 1004 232
159 1002 309
155 1002 390
156 1000 475
151 998 566
152 998 652
152 996 742
157 994 811
160 992 866
160 994 911
155 1000 944
143 1006 976
318 91 57
318 94 89
318 96 135
318 98 192
317 99 258
316 100 332
314 100 411
313 100 494
311 99 579
309 99 664
307 98 746
306 98 820
306 100 879
311 110 913
322 129 929
332 149 940
342 166 950
311 133 54
311 136 84
311 139 129
310 140 186
309 141 252
308 142 325
307 141 404
305 141 487
303 140 573
301 139 659
299 137 742
297 137 818
297 138 880
302 150 917
312 172 932
324 195 941
