blink/scripts/LUTRecover_recoveredGrade.3dl
# Generated by Nuke for flame
# Dimensions 17x17x17
# Input bit depth 10
# Output bit depth 10
0 256 512 767 1023
0 0 0
6 6 247
10 10 441
15 15 618
18 18 786
34 176 35
41 182 281
44 187 475
50 191 652
52 195 819
61 315 61
67 321 307
71 325 502
75 330 679
79 334 846
85 442 86
92 447 332
95 452 526
101 456 703
104 460 871
108 561 108
114 567 355
118 572 549
123 576 726
127 580 894
165 11 12
171 18 258
175 22 452
179 26 629
183 30 796
199 187 46
204 193 291
209 198 486
213 202 663
217 206 830
226 326 72
231 332 318
236 336 513
240 341 690
244 344 857
250 452 97
255 458 342
260 463 537
264 467 714
268 471 881
273 572 120
278 578 365
283 582 560
287 586 737
291 591 904
294 19 19
300 25 266
305 30 460
309 34 637
313 38 805
328 196 54
334 201 300
339 206 494
343 210 671
347 214 839
355 335 80
361 340 327
365 345 521
370 349 698
373 353 866
379 461 105
385 467 351
390 472 545
394 476 722
398 480 890
402 581 128
408 587 374
413 591 569
417 595 746
421 599 913
413 27 28
418 34 274
423 38 468
427 43 645
431 46 813
447 203 62
452 209 308
457 214 502
461 218 679
465 222 846
473 342 89
479 348 335
484 353 529
488 357 706
492 361 874
498 469 114
503 475 359
508 479 553
512 484 730
516 488 897
521 589 136
526 594 382
531 599 576
535 602 753
539 607 921
524 35 35
530 41 281
535 45 476
539 49 653
543 53 820
558 211 69
563 217 315
569 221 510
572 225 687
577 229 854
585 350 95
591 356 342
595 360 536
600 364 713
604 368 881
609 476 121
615 482 366
620 487 561
623 491 738
628 495 905
633 596 143
638 602 390
643 607 584
647 611 761
651 615 928
