blink/scripts/LUTRecoverMerge_recoveredGrade1.3dl
# Generated by Nuke for flame
# Dimensions 17x17x17
# Input bit depth 10
# Output bit depth 10
0 64 128 192 256 320 384 448 512 575 639 703 767 831 895 959 1023 
0 0 0
0 0 3
8 8 121
15 13 192
17 15 260
17 16 299
18 16 346
21 28 418
28 27 452
41 39 463
56 54 475
71 67 487
84 80 499
97 92 510
109 103 520
120 114 530
131 124 540
1 2 1
2 9 15
14 56 140
17 62 202
17 56 262
19 58 309
21 63 360
26 65 425
33 65 462
49 69 475
67 79 489
83 90 502
97 102 514
110 113 524
122 123 535
133 133 544
144 143 554
21 86 23
20 94 92
23 103 158
24 103 211
27 107 281
27 106 310
29 106 369
31 106 423
41 110 471
58 111 485
77 114 501
94 120 515
109 127 527
123 136 538
135 145 548
146 154 558
157 163 567
36 137 38
29 139 107
30 140 165
31 141 218
34 147 278
35 145 328
37 148 371
41 151 434
49 151 478
65 152 492
85 153 509
103 155 524
120 159 538
134 164 550
147 170 561
159 177 571
170 185 580
45 185 48
38 182 105
40 190 177
40 183 232
40 179 276
42 183 332
43 182 379
51 185 465
56 188 485
72 189 499
92 191 516
111 192 532
128 194 546
143 196 559
157 200 571
169 204 581
181 210 591
50 213 53
45 216 112
44 211 179
48 220 235
48 219 287
49 219 337
51 219 390
57 223 464
63 224 492
79 225 506
99 227 523
118 229 539
135 230 554
150 231 567
165 233 579
178 235 590
191 239 600
57 247 59
52 252 124
53 254 186
54 251 243
55 253 291
57 257 343
58 257 396
65 261 467
70 259 499
86 260 513
106 262 530
125 264 546
142 265 560
157 266 574
172 267 586
186 269 597
199 271 608
66 297 82
65 298 134
63 292 190
65 296 254
73 314 304
72 309 357
73 307 410
70 297 458
77 293 505
93 294 520
113 296 536
131 298 552
148 299 567
164 300 580
179 301 593
193 302 604
206 304 615
77 322 85
76 324 139
77 326 201
78 327 257
79 329 310
81 330 361
82 330 410
83 331 457
84 327 505
100 326 525
120 328 543
139 329 559
155 331 574
171 332 587
186 333 599
199 334 611
213 336 622
89 328 102
93 334 144
95 336 204
96 338 260
97 339 313
99 340 363
100 341 412
101 342 460
103 343 504
114 346 532
131 350 551
148 354 567
164 357 581
179 359 594
193 361 606
207 363 618
220 364 628
103 336 123
111 343 159
116 348 208
118 350 263
119 351 316
120 352 367
122 354 416
123 354 463
125 356 507
133 359 540
146 365 560
161 370 576
176 375 590
190 378 603
203 381 614
216 384 625
229 387 636
117 344 142
126 352 175
134 358 217
138 361 267
139 363 319
141 364 370
142 365 419
143 366 466
145 368 511
151 371 545
162 376 568
175 382 585
188 387 599
201 392 611
214 396 623
227 400 633
239 403 643
129 351 161
139 359 192
149 367 228
155 371 273
158 374 322
159 375 373
160 376 422
161 377 469
163 379 514
168 381 550
177 386 576
189 391 593
201 397 608
214 402 620
226 407 631
238 411 641
249 415 651
141 358 178
152 366 208
162 374 241
170 380 281
174 383 327
176 385 375
177 386 424
178 387 472
180 388 516
184 391 554
192 395 582
203 400 601
214 406 616
226 411 628
237 416 639
249 420 649
260 425 659
152 364 195
163 373 223
174 381 254
183 387 290
189 391 332
192 394 379
193 395 427
194 396 474
196 398 519
200 400 558
207 404 587
216 408 607
227 413 623
238 418 636
249 423 647
260 428 657
270 433 667
163 371 210
174 379 238
185 387 267
194 393 301
202 398 339
206 402 383
208 403 430
209 405 477
211 406 521
215 408 561
221 411 591
229 416 613
239 421 630
249 426 643
260 430 654
271 435 665
281 442 676
173 377 225
184 385 252
195 393 280
205 399 312
213 405 347
219 409 388
222 411 433
224 413 479
226 414 524
229 416 563
234 419 595
242 423 618
251 427 636
261 432 650
271 437 662
281 443 674
293 452 687
1 0 0
16 2 22
49 7 126
53 9 195
60 10 254
59 12 306
55 14 347
62 22 432
63 27 456
69 44 471
81 62 486
93 77 500
105 91 512
117 103 523
129 115 534
139 125 543
150 136 553
18 16 4
6 6 8
25 27 107
36 33 192
43 30 255
40 32 304
39 40 354
52 53 453
61 58 474
76 73 493
91 87 506
105 100 518
118 112 529
130 123 539
141 134 549
152 144 558
163 154 567
63 91 21
33 75 49
22 94 145
24 101 204
27 106 274
28 106 310
30 106 374
44 107 457
61 111 486
84 114 506
102 118 521
118 126 534
131 136 544
143 145 554
155 155 564
166 164 573
176 173 581
74 140 31
52 135 65
30 136 160
31 140 217
34 146 278
35 147 327
37 147 371
53 150 472
68 152 494
91 154 514
111 155 531
128 158 545
142 163 557
155 170 568
167 178 577
178 186 586
189 194 595
88 182 39
67 181 67
40 185 175
40 184 231
40 180 277
42 182 334
44 182 375
62 188 485
75 190 501
98 192 521
118 193 538
135 194 553
151 196 567
166 200 578
178 205 589
190 211 598
201 217 607
93 220 47
70 215 76
45 211 178
47 219 237
49 221 285
49 218 337
52 223 392
68 224 490
82 226 508
105 228 528
125 229 545
142 231 560
159 232 574
174 234 586
187 236 598
200 239 608
212 244 617
94 249 53
74 250 92
55 257 186
54 251 242
55 250 290
58 258 348
59 258 398
75 261 495
89 261 515
112 263 535
131 264 552
149 266 567
165 267 581
181 268 593
195 269 605
208 271 616
220 274 625
110 309 75
96 320 119
79 317 195
82 323 255
85 329 309
86 328 361
86 327 411
85 311 479
95 295 521
119 297 541
138 298 558
156 300 573
172 301 587
187 302 600
202 303 612
215 304 623
228 306 633
113 326 83
107 335 129
98 338 203
99 339 260
100 340 313
101 342 364
102 343 413
103 343 461
104 335 516
125 330 547
145 331 565
162 333 580
179 334 594
194 335 606
208 336 618
222 337 629
235 338 639
117 335 108
122 347 150
123 352 208
124 353 264
125 355 317
126 356 368
127 357 417
128 358 464
129 359 511
135 359 551
153 360 571
170 362 587
186 363 601
201 365 613
215 366 625
229 367 636
242 368 646
127 344 134
136 355 171
143 363 214
145 366 268
147 367 321
148 369 371
149 370 420
150 371 468
151 372 514
155 373 555
167 377 579
182 381 595
196 385 608
211 387 621
224 390 632
237 392 643
250 393 653
139 352 156
149 363 190
158 372 227
164 376 272
166 378 324
167 380 374
168 381 423
169 382 471
171 383 517
174 385 558
183 389 585
195 394 603
209 399 617
222 403 629
235 406 640
247 409 650
259 412 660
150 360 176
161 370 207
171 379 241
179 385 281
183 388 327
185 390 377
186 391 426
187 392 474
188 393 520
191 395 561
199 399 591
210 404 611
222 409 625
234 413 637
246 418 648
258 422 658
269 425 667
161 367 194
172 376 224
183 385 255
192 392 291
198 397 333
201 399 380
203 400 428
204 401 476
205 403 522
208 404 564
214 408 595
223 412 617
234 417 632
246 422 645
257 427 656
269 431 666
280 435 675
171 373 211
183 382 239
194 391 269
204 399 302
211 404 340
216 407 384
218 409 431
219 410 478
220 411 524
223 413 566
228 416 599
237 420 623
247 425 639
258 430 652
269 434 663
279 439 673
290 443 682
181 379 227
193 388 254
204 397 283
215 404 314
223 410 349
229 414 389
232 417 434
234 418 481
235 419 526
238 421 569
242 424 603
250 427 627
259 432 645
269 436 659
280 441 670
290 446 680
301 450 689
191 385 242
202 394 268
214 402 296
225 410 326
234 416 358
241 421 396
245 424 438
248 425 483
249 427 529
251 428 571
256 431 606
263 434 632
271 438 650
281 443 665
291 448 677
301 452 687
311 458 698
69 13 18
89 8 79
93 9 143
98 11 196
99 13 250
98 14 307
98 16 358
103 23 429
105 29 459
109 46 475
114 68 494
122 85 510
131 100 523
140 113 535
150 125 546
160 137 556
170 147 565
96 58 16
76 29 41
88 10 133
97 11 192
97 13 251
97 15 304
100 17 358
104 37 458
109 50 478
114 74 500
121 94 518
131 110 531
141 123 543
152 134 553
162 145 563
172 156 572
182 166 580
109 104 25
103 96 25
67 60 90
60 54 192
62 59 258
61 63 309
69 68 394
88 85 484
102 97 505
116 110 525
129 122 541
141 134 551
153 145 560
164 156 570
175 166 578
185 175 587
195 185 595
120 141 33
118 139 33
73 133 93
32 138 213
34 144 276
36 145 326
45 146 402
75 150 498
96 153 517
118 155 537
137 158 553
152 162 565
165 170 575
177 178 584
188 187 593
198 196 601
208 204 609
127 180 41
125 181 41
82 180 107
40 183 228
41 181 279
42 180 333
52 183 411
81 190 506
102 192 525
125 194 544
144 195 561
161 197 575
175 200 587
188 205 597
200 211 606
211 218 614
221 226 622
132 221 49
130 219 49
86 216 119
48 218 235
49 220 284
49 219 337
60 224 423
88 226 513
109 228 532
132 230 551
151 232 568
168 233 582
183 234 595
197 236 606
210 240 616
222 244 625
232 250 633
138 257 57
140 257 59
103 276 134
66 274 243
67 276 296
69 280 353
74 276 425
95 262 518
116 263 538
138 265 558
158 267 574
175 268 588
190 269 601
205 270 613
218 272 624
231 274 634
242 278 642
150 307 75
152 327 96
130 340 165
107 342 257
107 344 314
108 345 364
109 344 415
106 321 493
123 298 544
145 299 564
164 301 581
181 302 595
197 303 608
211 304 620
225 305 631
238 307 641
250 308 650
154 328 85
156 340 116
144 354 184
130 356 263
130 358 318
131 359 368
132 360 417
133 360 466
133 345 530
151 333 570
171 334 587
188 335 601
203 336 614
218 337 626
232 338 637
245 340 647
257 341 657
157 338 111
160 353 152
158 367 204
153 370 268
154 372 322
156 373 372
157 374 421
158 375 469
158 376 516
161 370 567
177 366 593
194 367 608
210 368 621
224 369 633
238 370 644
251 371 654
264 372 663
160 350 142
165 364 181
171 377 222
174 383 272
176 384 325
177 385 376
178 386 425
179 387 473
180 388 519
181 389 564
189 390 598
204 392 614
218 394 627
233 395 639
246 397 650
259 398 660
271 399 670
167 359 168
174 372 204
183 384 239
190 391 279
194 394 328
195 396 379
196 397 428
197 398 475
198 399 522
200 400 567
205 402 602
217 406 621
230 410 635
243 413 647
256 416 657
268 418 667
280 420 677
175 367 190
184 379 223
194 390 255
203 398 291
209 403 333
212 405 381
213 406 430
214 407 478
215 408 524
217 410 569
221 412 605
231 416 628
243 420 642
255 425 654
267 428 665
278 432 675
290 435 684
184 375 209
193 385 240
204 395 271
214 404 303
222 410 341
227 413 385
229 415 433
230 416 480
231 417 527
233 418 571
237 421 608
245 424 633
255 429 649
267 433 662
278 438 672
289 442 682
300 445 691
193 381 227
203 391 256
214 401 285
225 409 316
234 416 351
240 420 391
243 423 436
245 424 483
246 425 529
248 426 573
251 429 610
258 432 637
268 436 655
278 441 668
289 445 679
300 450 689
310 454 698
202 387 243
212 397 271
223 406 299
234 414 329
244 421 361
252 427 398
256 430 440
259 431 485
260 433 531
262 434 575
265 436 613
272 439 641
280 443 660
290 448 674
300 452 686
311 457 696
321 461 705
210 393 258
221 402 285
232 411 312
244 419 341
254 426 371
262 432 406
268 436 445
272 438 488
274 440 533
275 441 577
279 443 615
284 446 644
292 450 665
301 454 680
311 459 692
321 463 702
331 467 712
130 20 27
130 11 83
134 12 146
134 13 200
136 15 260
140 18 311
138 19 358
144 23 417
142 31 462
146 49 478
150 71 497
155 90 515
161 107 531
167 122 544
175 135 556
183 146 566
191 157 576
138 61 19
129 36 51
127 12 143
130 13 198
134 15 258
139 17 307
138 19 361
144 36 454
147 52 480
152 77 503
156 98 523
161 116 539
168 131 553
176 144 564
185 156 574
194 166 583
