blink/scripts/LUTRecoverMerge_recoveredGrade3.3dl
# Generated by Nuke for flame
# Dimensions 17x17x17
# Input bit depth 10
# Output bit depth 10
0 64 128 192 256 320 384 448 512 575 639 703 767 831 895 959 1023 
0 0 0
9 9 49
23 22 127
38 36 177
55 52 218
71 67 253
86 82 284
101 95 311
115 108 335
128 121 357
141 133 378
153 145 397
165 156 415
177 167 433
183 173 451
202 191 476
214 202 492
13 34 17
16 51 78
26 57 142
41 61 192
59 70 235
77 82 271
93 95 301
108 108 328
123 121 352
136 134 374
150 146 394
162 157 413
175 169 430
186 179 447
198 188 467
214 202 492
214 202 492
34 89 43
32 96 93
36 100 153
49 104 202
66 107 246
84 110 284
100 117 316
116 127 343
131 138 368
145 149 390
159 160 410
172 171 428
184 182 445
196 193 461
208 202 479
214 202 492
226 214 507
53 124 67
53 132 104
54 135 164
60 140 214
75 145 255
91 148 293
108 151 326
124 155 356
139 161 381
154 169 404
168 178 424
181 188 443
194 198 460
206 208 476
218 217 492
226 214 507
246 233 532
71 152 93
75 162 120
76 166 171
79 169 225
87 175 268
101 182 303
116 186 335
132 189 365
147 192 391
162 196 415
177 202 437
190 209 456
203 217 473
216 226 489
228 234 505
243 236 527
259 245 548
89 176 117
94 187 140
97 193 180
99 196 233
104 200 281
113 207 317
126 215 347
141 220 375
155 224 400
170 228 424
185 231 447
199 235 467
212 241 485
225 247 502
237 254 517
252 255 538
264 251 554
105 196 140
111 208 160
116 216 192
119 220 240
122 223 289
128 228 330
139 236 361
152 244 387
165 251 412
179 256 434
193 260 456
207 264 476
221 268 495
234 272 512
246 278 528
262 279 548
277 272 567
120 215 161
127 226 181
134 235 208
138 241 248
141 244 296
145 248 340
153 255 375
164 263 402
177 271 425
190 279 446
203 285 467
216 290 486
229 294 505
242 298 522
255 302 538
270 307 557
285 311 576
135 231 182
143 242 201
150 252 225
156 259 259
159 263 303
162 266 348
168 272 386
178 279 415
189 288 439
201 296 460
214 303 479
226 310 498
239 316 515
252 321 532
264 325 548
277 336 565
290 342 581
149 246 202
157 257 220
165 267 243
172 275 272
176 280 310
179 284 355
184 288 395
192 294 427
202 302 452
214 310 473
225 318 492
237 326 510
250 333 527
262 339 543
274 345 559
285 358 574
297 372 588
162 260 220
170 270 239
179 280 260
186 289 287
192 295 320
196 299 361
200 303 403
207 309 437
216 316 464
226 324 486
237 332 505
249 339 523
261 347 539
272 354 555
284 361 570
295 377 585
303 390 595
175 272 238
183 282 256
192 292 277
200 301 302
207 309 332
212 314 369
216 318 409
221 322 446
229 328 475
239 336 498
250 344 518
261 351 535
272 359 551
283 366 567
295 374 582
303 390 595
315 399 608
187 284 255
195 294 274
204 304 294
213 313 317
220 321 344
227 327 378
231 331 416
236 335 453
243 341 484
252 347 509
262 355 529
273 362 547
283 370 563
294 378 579
306 387 595
315 399 608
327 408 622
198 296 272
207 305 290
216 314 310
225 323 332
233 331 358
240 338 388
246 343 424
251 347 460
257 352 492
265 358 519
274 365 540
284 373 558
295 380 575
306 389 591
315 399 608
327 408 622
339 417 635
206 309 282
220 319 304
229 326 324
237 334 346
246 342 371
253 349 399
259 354 432
264 359 467
270 364 500
278 369 528
286 376 551
296 383 571
306 391 590
315 400 607
327 409 620
339 417 635
351 425 649
225 325 308
236 336 325
236 336 325
248 346 342
263 358 374
270 364 402
277 369 435
280 372 475
283 375 517
289 379 548
296 385 574
303 391 594
315 400 607
327 409 620
339 418 634
351 427 647
357 430 655
236 336 325
236 336 325
248 346 342
268 362 370
280 372 389
285 376 397
295 384 427
297 386 482
297 386 526
300 388 568
303 391 594
315 400 607
327 409 620
339 418 634
351 427 647
357 431 654
369 440 667
33 9 13
48 10 72
55 20 136
61 36 189
72 54 233
85 71 269
100 87 300
114 101 327
127 115 351
141 128 373
153 141 393
166 153 412
178 164 429
189 176 446
199 187 467
214 202 492
214 202 492
55 52 19
41 39 59
44 42 150
57 54 209
72 68 256
89 84 291
105 99 320
121 114 346
135 128 369
149 141 391
162 153 410
175 165 429
187 177 446
199 188 462
210 199 478
214 202 492
234 221 517
68 97 40
54 104 72
41 104 160
56 105 220
76 108 268
95 111 307
112 119 338
129 131 364
144 143 387
158 155 408
172 167 427
185 179 445
197 190 461
209 201 477
220 212 492
232 220 511
246 233 532
77 133 67
72 145 95
63 148 167
67 147 226
84 148 276
102 150 315
120 152 349
137 156 378
153 164 402
167 174 424
181 184 443
194 195 461
207 205 477
219 216 492
231 226 507
242 235 523
259 245 548
90 163 97
90 178 119
88 183 175
90 184 231
94 185 283
110 187 323
127 189 356
144 191 386
160 194 413
176 199 436
191 206 456
204 214 475
217 223 491
229 233 507
241 242 521
253 251 536
272 258 563
105 187 124
108 201 144
111 210 182
112 212 238
114 213 290
121 217 333
136 222 365
152 226 394
168 228 421
184 231 445
199 234 467
213 239 486
227 245 504
239 253 520
251 261 534
263 269 549
277 264 569
120 208 149
125 221 168
131 232 197
133 236 244
135 238 296
139 241 343
148 247 377
162 254 405
177 259 430
192 262 454
207 265 476
221 268 496
235 272 514
248 277 531
261 283 546
273 290 560
290 284 583
134 226 171
141 238 191
148 250 215
153 257 252
155 260 301
157 262 350
164 267 389
175 274 418
188 282 442
202 288 464
216 292 485
230 296 505
243 300 523
257 303 540
270 308 556
282 313 571
299 310 593
148 242 193
156 254 212
164 265 235
171 274 265
174 279 307
176 281 355
181 285 398
189 291 431
201 299 455
213 306 477
226 313 497
239 319 515
252 324 533
265 328 550
278 332 566
291 336 581
305 343 599
162 257 213
170 268 232
179 279 253
186 289 280
192 295 316
195 299 361
198 301 405
205 306 441
214 314 468
226 321 490
238 329 509
250 336 527
263 342 544
275 348 560
288 353 576
300 358 590
312 375 605
175 270 232
183 281 251
192 292 272
201 302 296
208 309 327
212 314 367
215 317 411
220 321 449
228 327 479
239 335 502
250 343 522
262 350 540
274 357 556
286 364 571
298 369 586
310 375 601
320 396 614
187 283 250
196 293 269
205 304 289
214 314 312
222 322 341
228 328 376
232 331 417
236 335 457
243 340 489
252 347 514
262 355 534
274 362 552
285 370 568
297 377 583
308 383 597
320 390 612
333 412 628
199 294 268
208 305 286
218 315 306
227 324 328
235 333 354
242 340 386
247 344 424
251 348 463
257 353 497
265 359 524
275 366 545
286 373 563
297 381 579
308 388 594
319 395 609
331 403 623
339 417 635
211 305 285
220 315 303
229 325 322
239 335 344
248 343 369
255 351 397
261 356 432
266 360 469
271 365 504
279 370 533
288 377 555
298 384 574
309 391 590
320 398 605
330 406 620
341 417 636
351 425 649
221 319 302
231 326 319
241 335 338
250 344 359
259 353 383
268 361 410
275 367 441
280 372 476
285 376 511
292 381 541
301 387 564
310 394 584
320 401 601
331 408 617
342 417 634
351 425 649
363 434 662
236 336 325
236 336 325
253 348 352
262 355 373
271 363 396
280 370 422
287 377 451
293 382 484
299 387 518
305 391 548
313 397 574
322 403 595
332 411 614
342 419 634
351 427 647
363 436 660
375 443 675
236 336 325
256 352 353
268 362 370
280 372 389
293 382 407
298 386 416
309 394 445
314 398 482
315 399 528
316 400 573
321 404 604
333 413 627
339 418 634
351 427 647
363 436 660
376 445 674
382 449 680
86 24 34
92 21 83
96 25 143
101 38 193
106 56 239
112 75 279
120 92 312
131 107 341
143 122 366
156 136 388
168 149 408
180 161 427
192 173 444
203 184 460
213 196 478
222 209 501
234 221 517
98 59 35
102 44 64
100 29 150
103 45 212
108 67 262
114 86 303
124 104 336
137 120 363
150 135 386
163 149 407
176 161 426
189 174 444
201 185 461
212 197 476
224 208 492
233 219 511
246 233 532
108 102 46
113 107 53
91 86 129
85 81 232
99 94 285
113 107 327
128 121 360
143 136 384
158 150 406
172 163 426
186 175 444
198 187 461
211 199 478
222 210 493
234 221 507
245 231 522
259 245 548
117 137 70
120 149 81
98 160 133
77 154 236
94 149 296
114 151 338
133 153 373
151 158 401
167 168 423
182 180 443
196 191 461
209 203 478
221 214 494
233 225 509
244 235 522
255 245 536
267 254 556
124 168 100
128 184 117
116 197 157
102 198 234
105 193 295
121 189 345
140 191 380
158 193 410
175 196 436
191 202 458
205 211 476
219 221 493
231 231 509
243 241 524
255 251 537
266 260 550
278 269 566
132 194 129
134 211 148
132 226 179
127 229 241
128 230 295
131 227 348
148 227 387
165 229 417
182 231 444
199 233 467
214 237 488
228 243 506
241 251 523
254 259 537
266 268 551
277 277 564
289 285 578
141 217 156
145 232 176
149 248 201
150 254 248
151 255 300
152 256 351
158 258 395
173 262 425
190 264 451
206 266 475
222 269 497
236 272 516
250 276 534
263 282 549
276 289 564
287 296 577
299 303 591
153 236 180
158 250 201
165 264 224
170 274 257
172 277 305
173 278 356
176 280 402
186 286 436
200 291 461
215 296 484
229 299 505
244 302 524
258 305 543
272 308 559
285 313 575
297 318 589
309 324 602
165 252 203
172 266 223
180 278 245
187 289 273
192 295 312
193 298 361
195 299 408
202 303 446
213 310 473
226 317 495
239 323 515
253 327 534
267 331 552
280 335 568
293 338 584
306 342 598
318 347 612
177 267 224
185 279 244
194 292 265
202 302 290
209 311 322
212 315 366
214 316 413
218 319 454
227 325 484
238 333 507
251 340 527
264 346 545
277 352 562
290 357 578
302 361 593
315 365 608
327 369 622
190 280 244
198 292 263
207 304 284
216 315 307
224 323 336
229 329 373
232 332 418
235 335 460
242 339 494
252 346 519
263 354 539
275 361 557
288 368 573
300 374 589
312 379 603
324 384 617
336 389 631
202 293 262
210 304 282
220 315 302
229 326 325
238 335 351
245 342 383
249 346 423
252 349 466
257 353 502
266 359 529
276 366 551
287 373 568
299 380 585
311 387 600
323 393 614
335 399 628
346 405 642
213 304 280
222 315 299
232 326 319
241 336 341
250 345 366
258 353 395
264 359 431
268 362 471
272 366 508
280 371 538
289 377 561
300 385 580
311 392 596
322 399 611
334 405 625
345 411 639
356 419 652
225 315 297
234 325 316
243 336 336
253 346 357
262 355 381
271 363 408
278 370 440
283 374 477
287 378 514
294 382 546
302 388 570
312 395 590
323 402 607
334 409 622
345 416 636
356 423 649
367 432 664
235 326 315
245 335 332
254 345 352
264 355 373
274 364 395
283 372 421
291 379 450
297 385 484
302 389 520
308 393 553
315 399 579
325 405 600
335 412 617
345 419 632
356 425 647
367 433 661
375 443 675
244 342 335
255 348 350
265 355 368
275 364 388
285 373 410
294 381 434
303 388 462
310 394 493
315 399 527
321 403 559
328 409 587
337 415 609
347 421 627
357 428 643
367 435 658
378 446 677
388 452 688
256 352 353
268 362 370
280 372 389
288 377 401
297 383 422
306 391 446
315 398 473
322 404 503
328 409 535
334 414 567
341 418 595
349 424 619
358 430 639
367 437 658
376 445 674
388 453 687
401 462 699
120 39 56
128 38 90
130 39 150
135 45 201
142 60 243
147 77 283
152 95 318
158 112 350
166 128 377
175 142 400
186 156 421
196 169 440
207 181 457
218 193 474
228 204 490
234 221 517
246 233 532
132 64 58
142 56 82
143 46 153
143 51 212
146 69 265
150 88 306
155 107 343
161 125 373
170 141 399
181 156 421
193 169 441
204 182 459
216 194 475
227 206 491
238 217 506
248 228 522
