blink/scripts/LUTRecoverMerge_recoveredGrade1.3dl
# Generated by Nuke for flame
# Dimensions 17x17x17
# Input bit depth 10
# Output bit depth 10
0 256 512 767 1023
0 0 0
17 15 260
28 27 452
84 80 499
131 124 540
45 185 48
40 179 276
56 188 485
128 194 546
181 210 591
77 322 85
79 329 310
84 327 505
155 331 574
213 336 622
129 351 161
158 374 322
163 379 514
201 397 608
249 415 651
173 377 225
213 405 347
226 414 524
251 427 636
293 452 687
166 24 31
174 18 267
178 33 462
194 111 535
216 166 585
203 194 48
137 131 198
180 171 568
224 212 621
261 247 649
227 332 89
217 393 291
192 366 561
254 341 655
304 346 692
238 376 204
260 428 352
270 438 533
287 445 678
333 453 717
256 406 285
293 445 402
324 465 542
336 473 693
373 488 742
301 34 42
309 38 269
309 43 465
322 120 544
334 182 600
335 197 71
388 178 261
360 155 531
345 226 639
357 279 682
357 337 99
395 373 259
386 364 550
364 344 727
393 371 750
365 385 213
380 442 369
389 493 541
386 486 739
427 478 784
374 419 304
388 467 447
416 507 581
435 520 731
462 530 804
336 88 124
361 116 286
366 122 478
388 160 575
412 209 622
375 202 179
425 218 323
436 229 503
444 245 650
458 295 695
402 339 207
456 347 356
503 348 521
496 347 720
495 393 772
429 404 270
478 450 394
520 491 540
527 497 751
524 495 842
449 434 342
489 478 467
516 523 610
535 562 757
556 572 865
366 132 191
398 172 315
408 184 492
423 209 605
455 258 667
405 217 258
446 252 375
469 282 517
477 295 668
496 333 721
434 343 294
480 351 430
519 375 563
535 394 714
547 423 789
458 422 340
504 458 464
549 482 604
587 496 748
598 518 858
489 461 412
522 493 521
565 534 652
607 573 789
644 608 918
