blink/scripts/LUTRecoverMerge_recoveredGrade1.3dl
# Generated by Nuke for flame
# Dimensions 17x17x17
# Input bit depth 10
# Output bit depth 10
0 128 256 384 512 639 767 895 1023
0 0 0
8 8 121
17 15 260
18 16 346
28 27 452
56 54 475
84 80 499
109 103 520
131 124 540
21 86 23
23 103 158
27 107 281
29 106 369
41 110 471
77 114 501
109 127 527
135 145 548
157 163 567
45 185 48
40 190 177
40 179 276
43 182 379
56 188 485
92 191 516
128 194 546
157 200 571
181 210 591
57 247 59
53 254 186
55 253 291
58 257 396
70 259 499
106 262 530
142 265 560
172 267 586
199 271 608
77 322 85
77 326 201
79 329 310
82 330 410
84 327 505
120 328 543
155 331 574
186 333 599
213 336 622
103 336 123
116 348 208
119 351 316
122 354 416
125 356 507
146 365 560
176 375 590
203 381 614
229 387 636
129 351 161
149 367 228
158 374 322
160 376 422
163 379 514
177 386 576
201 397 608
226 407 631
249 415 651
152 364 195
174 381 254
189 391 332
193 395 427
196 398 519
207 404 587
227 413 623
249 423 647
270 433 667
173 377 225
195 393 280
213 405 347
222 411 433
226 414 524
234 419 595
251 427 636
271 437 662
293 452 687
69 13 18
93 9 143
99 13 250
98 16 358
105 29 459
114 68 494
131 100 523
150 125 546
170 147 565
109 104 25
67 60 90
62 59 258
69 68 394
102 97 505
129 122 541
153 145 560
175 166 578
195 185 595
127 180 41
82 180 107
41 181 279
52 183 411
102 192 525
144 195 561
175 200 587
200 211 606
221 226 622
138 257 57
103 276 134
67 276 296
74 276 425
116 263 538
158 267 574
190 269 601
218 272 624
242 278 642
154 328 85
144 354 184
130 358 318
132 360 417
133 345 530
171 334 587
203 336 614
232 338 637
257 341 657
160 350 142
171 377 222
176 384 325
178 386 425
180 388 519
189 390 598
218 394 627
246 397 650
271 399 670
175 367 190
194 390 255
209 403 333
213 406 430
215 408 524
221 412 605
243 420 642
267 428 665
290 435 684
193 381 227
214 401 285
234 416 351
243 423 436
246 425 529
251 429 610
268 436 655
289 445 679
310 454 698
210 393 258
232 411 312
254 426 371
268 436 445
274 440 533
279 443 615
292 450 665
311 459 692
331 467 712
166 24 31
174 15 147
174 18 267
178 21 365
178 33 462
186 73 500
194 111 535
203 141 563
216 166 585
189 108 31
178 62 90
174 18 264
176 29 391
188 83 509
198 128 551
206 162 581
220 186 602
236 207 619
203 194 48
203 192 47
137 131 198
151 143 521
180 171 568
204 193 601
224 212 621
243 230 635
261 247 649
218 264 63
218 282 76
187 361 248
136 315 482
174 268 587
211 271 618
241 273 642
265 280 660
285 291 674
227 332 89
234 361 163
217 393 291
195 396 427
192 366 561
224 338 631
254 341 655
280 343 675
304 346 692
233 355 148
240 386 229
240 415 324
235 419 434
237 421 528
239 412 629
267 405 667
293 406 687
317 408 705
238 376 204
246 404 279
260 428 352
268 436 439
270 438 533
273 440 623
287 445 678
310 450 700
333 453 717
245 393 249
258 417 315
277 436 378
293 449 448
298 453 537
301 455 626
312 460 686
332 468 713
353 475 730
256 406 285
273 427 344
293 445 402
313 458 464
324 465 542
327 469 629
336 473 693
354 480 723
373 488 742
236 28 36
232 20 156
239 23 263
243 25 359
244 38 468
252 77 504
260 115 539
267 148 569
273 176 595
248 115 37
260 72 101
263 33 269
262 40 388
255 88 514
264 132 555
271 167 587
278 197 613
286 222 634
267 192 52
290 195 65
355 150 219
304 102 452
267 149 571
275 189 606
282 222 634
291 247 655
304 267 670
281 260 66
301 280 88
340 321 179
301 284 429
256 242 629
276 262 655
294 278 678
311 294 689
327 309 701
294 337 94
300 365 167
308 400 259
287 431 394
253 386 589
278 342 673
307 345 694
330 348 711
350 355 724
299 359 152
307 390 234
314 421 317
307 448 422
296 451 536
295 430 655
319 409 707
343 411 724
366 413 739
304 381 208
311 409 285
318 438 365
325 463 447
327 467 541
329 470 631
333 469 715
357 468 735
379 468 751
308 399 256
315 425 329
325 450 402
340 469 470
352 479 546
355 482 635
360 485 714
377 490 746
397 495 763
313 414 298
322 438 365
336 459 430
355 476 491
372 489 557
379 494 638
384 496 716
399 502 754
417 509 773
301 34 42
306 35 160
309 38 269
311 41 369
309 43 465
314 83 509
322 120 544
328 153 574
334 182 600
320 119 56
342 104 149
342 88 280
345 90 380
332 94 495
327 136 560
334 171 591
340 202 618
345 229 641
335 197 71
361 200 141
388 178 261
387 153 393
360 155 531
338 193 610
345 226 639
351 254 662
357 279 682
349 268 86
375 271 154
407 275 241
432 248 368
386 218 566
350 251 660
357 282 685
362 307 705
372 327 720
357 337 99
375 353 171
395 373 259
415 391 349
386 364 550
348 329 708
364 344 727
379 358 740
393 371 750
360 364 158
369 395 238
377 425 321
384 454 407
373 480 518
351 447 680
371 413 743
394 415 758
414 420 771
365 385 213
374 414 289
380 442 369
388 469 451
389 493 541
385 496 639
386 486 739
406 477 770
427 478 784
370 403 261
377 429 334
384 455 410
391 481 488
403 501 561
410 508 642
412 510 730
424 512 779
443 515 795
374 419 304
381 443 374
388 467 447
399 489 517
416 507 581
430 517 649
435 520 731
445 524 784
462 530 804
319 62 85
332 74 170
335 78 278
338 80 378
340 84 469
352 106 524
364 136 557
375 164 584
383 191 608
340 123 111
367 130 188
373 134 290
376 136 390
378 138 484
381 147 564
388 179 597
395 209 624
401 236 647
356 199 126
385 203 204
410 199 294
413 193 402
415 196 496
407 199 599
405 230 642
410 258 666
415 284 687
369 270 140
398 274 217
427 278 297
451 267 397
452 255 509
432 256 631
417 286 689
422 312 710
427 336 728
382 336 154
411 342 230
440 345 310
467 348 392
489 333 498
456 315 661
428 341 733
433 366 752
440 387 766
396 373 190
422 398 251
444 419 326
462 435 408
478 451 491
460 434 655
432 408 774
445 421 789
458 433 797
407 393 235
427 419 298
441 446 373
448 473 455
454 499 537
451 521 633
440 502 761
458 482 804
477 484 816
415 410 277
432 434 342
444 460 415
451 485 493
457 510 573
464 531 652
467 535 737
472 535 811
491 533 827
421 425 317
436 448 382
446 472 453
453 496 528
462 518 602
476 535 669
487 544 741
493 546 810
509 551 835
336 88 124
354 107 192
361 116 286
364 119 386
366 122 478
375 136 541
388 160 575
401 185 600
412 209 622
358 135 158
381 152 222
395 167 300
399 171 397
401 173 491
405 180 573
415 201 612
426 226 636
435 250 658
375 202 179
402 207 251
425 218 323
434 226 409
436 229 503
438 231 593
444 245 650
452 270 675
458 295 695
389 273 193
416 276 266
443 280 343
467 283 422
471 286 516
473 288 606
473 292 689
475 318 714
479 342 734
402 339 207
429 344 279
456 347 356
481 351 434
503 348 521
505 344 618
496 347 720
491 370 756
495 393 772
416 382 233
441 401 296
468 411 368
494 415 447
518 418 525
537 411 618
518 402 748
502 425 796
507 446 810
429 404 270
453 427 330
478 450 394
503 474 462
520 491 540
535 505 620
527 497 751
511 483 833
524 495 842
440 420 307
462 442 367
484 465 431
503 489 501
515 513 577
521 537 657
524 557 741
522 552 837
539 546 858
449 434 342
469 455 402
489 478 467
505 500 536
516 523 610
524 545 686
535 562 757
543 569 830
556 572 865
352 111 159
370 132 220
382 147 298
386 152 393
388 155 485
395 165 554
407 185 591
419 208 617
431 230 638
373 153 195
394 173 253
411 192 319
418 201 405
421 204 498
424 210 580
433 226 626
445 248 652
455 270 672
392 207 222
415 218 287
436 236 350
449 252 421
454 257 510
456 260 599
462 271 660
471 291 688
481 313 708
406 275 239
431 279 308
455 285 379
475 299 446
485 311 522
488 314 611
491 319 691
498 337 724
506 358 744
419 341 253
444 345 322
469 349 395
492 353 470
512 362 542
519 369 623
522 371 710
526 384 761
531 405 780
432 389 274
457 404 338
481 412 408
505 416 483
528 419 560
548 424 637
552 427 722
553 432 797
554 453 816
445 414 306
468 435 366
492 455 430
516 472 498
540 481 572
562 485 649
581 485 730
576 484 827
573 504 853
456 430 339
479 451 398
502 473 461
524 495 527
547 517 595
570 538 665
587 555 740
590 557 841
588 555 884
467 443 371
488 464 430
509 485 492
531 507 558
551 528 626
570 549 697
584 570 770
593 588 843
604 592 895
366 132 191
384 154 247
398 172 315
404 180 400
408 184 492
413 192 564
423 209 605
435 230 633
455 258 667
387 170 227
406 191 282
423 212 342
434 227 415
438 232 504
441 237 586
449 251 637
460 270 666
471 290 687
405 217 258
426 232 317
446 252 375
461 272 438
469 282 517
471 286 604
477 295 668
486 313 700
496 333 721
421 278 279
443 284 344
465 296 408
483 314 469
496 331 535
502 338 617
505 343 694
512 358 734
521 377 755
434 343 294
457 347 361
480 351 430
501 360 499
519 375 563
530 389 632
535 394 714
540 405 767
547 423 789
446 394 313
470 406 376
493 413 445
515 418 517
536 424 589
554 436 656
563 447 728
567 454 797
573 470 824
458 422 340
481 441 400
504 458 464
527 473 532
549 482 604
570 487 678
587 496 748
594 505 821
598 518 858
470 440 371
491 459 429
514 480 492
536 500 557
558 519 625
580 536 695
601 548 767
618 556 839
623 567 891
489 461 412
501 472 459
522 493 521
544 513 585
565 534 652
586 554 720
607 573 789
628 592 859
644 608 918
