blink/scripts/LUTRecoverMerge_recoveredGrade3.3dl
# Generated by Nuke for flame
# Dimensions 17x17x17
# Input bit depth 10
# Output bit depth 10
0 128 256 384 512 639 767 895 1023
0 0 0
23 22 127
55 52 218
86 82 284
115 108 335
141 133 378
165 156 415
183 173 451
214 202 492
34 89 43
36 100 153
66 107 246
100 117 316
131 138 368
159 160 410
184 182 445
208 202 479
226 214 507
71 152 93
76 166 171
87 175 268
116 186 335
147 192 391
177 202 437
203 217 473
228 234 505
259 245 548
105 196 140
116 216 192
122 223 289
139 236 361
165 251 412
193 260 456
221 268 495
246 278 528
277 272 567
135 231 182
150 252 225
159 263 303
168 272 386
189 288 439
214 303 479
239 316 515
264 325 548
290 342 581
162 260 220
179 280 260
192 295 320
200 303 403
216 316 464
237 332 505
261 347 539
284 361 570
303 390 595
187 284 255
204 304 294
220 321 344
231 331 416
243 341 484
262 355 529
283 370 563
306 387 595
327 408 622
206 309 282
229 326 324
246 342 371
259 354 432
270 364 500
286 376 551
306 391 590
327 409 620
351 425 649
236 336 325
248 346 342
280 372 389
295 384 427
297 386 526
303 391 594
327 409 620
351 427 647
369 440 667
86 24 34
96 25 143
106 56 239
120 92 312
143 122 366
168 149 408
192 173 444
213 196 478
234 221 517
108 102 46
91 86 129
99 94 285
128 121 360
158 150 406
186 175 444
211 199 478
234 221 507
259 245 548
124 168 100
116 197 157
105 193 295
140 191 380
175 196 436
205 211 476
231 231 509
255 251 537
278 269 566
141 217 156
149 248 201
151 255 300
158 258 395
190 264 451
222 269 497
250 276 534
276 289 564
299 303 591
165 252 203
180 278 245
192 295 312
195 299 408
213 310 473
239 323 515
267 331 552
293 338 584
318 347 612
190 280 244
207 304 284
224 323 336
232 332 418
242 339 494
263 354 539
288 368 573
312 379 603
336 389 631
213 304 280
232 326 319
250 345 366
264 359 431
272 366 508
289 377 561
311 392 596
334 405 625
356 419 652
235 326 315
254 345 352
274 364 395
291 379 450
302 389 520
315 399 579
335 412 617
356 425 647
375 443 675
256 352 353
280 372 389
297 383 422
315 398 473
328 409 535
341 418 595
358 430 639
376 445 674
401 462 699
148 55 79
161 58 156
171 69 253
185 98 323
195 132 383
208 162 431
226 189 469
245 213 502
255 241 542
170 110 92
195 97 143
190 85 280
193 124 371
203 161 431
221 192 474
242 217 507
263 240 536
283 262 565
189 179 117
208 196 141
190 180 271
186 176 425
211 199 481
238 225 514
262 248 543
285 269 569
306 289 593
206 225 165
215 257 205
205 290 282
188 279 425
223 269 499
256 273 541
283 286 573
307 303 599
328 321 622
217 265 217
225 296 263
233 328 320
233 334 419
239 334 510
270 338 555
300 341 592
326 348 622
350 359 647
231 296 263
242 324 308
259 350 358
271 364 427
274 368 518
292 377 575
318 388 609
344 396 639
368 404 666
248 321 303
263 346 346
282 369 392
300 386 447
308 394 526
320 402 593
341 415 630
364 427 659
388 437 685
267 343 339
284 364 380
304 385 423
324 404 473
338 416 537
348 423 606
366 435 650
387 448 679
409 460 705
276 368 381
304 384 413
325 401 453
345 419 499
362 433 554
375 443 618
390 453 666
409 465 698
430 478 725
193 85 125
212 95 176
219 99 272
234 116 344
251 142 396
264 172 443
274 200 485
287 227 521
287 261 567
217 121 143
246 125 184
253 126 282
257 134 377
267 167 438
275 201 487
286 231 527
301 257 559
318 280 587
234 190 159
264 195 196
292 179 267
279 164 409
276 202 489
284 237 536
300 265 570
319 288 597
338 309 620
255 240 189
278 263 216
299 282 260
284 268 405
273 258 543
295 279 584
318 301 608
339 321 631
360 340 652
273 275 231
289 302 269
298 336 322
291 368 405
277 355 539
307 343 601
337 347 634
361 359 659
382 375 680
286 306 276
297 334 321
306 366 376
315 395 438
317 401 528
323 402 612
351 406 648
378 410 678
403 417 702
296 333 319
307 360 366
320 387 417
337 411 470
350 425 537
355 429 620
374 439 666
397 449 695
421 457 720
308 356 359
322 380 404
338 404 452
357 425 500
375 442 555
385 450 628
399 459 682
420 470 713
442 481 738
308 385 412
338 398 439
356 419 482
376 439 528
396 456 578
411 468 639
424 477 695
443 487 730
463 499 756
229 112 165
250 125 208
261 134 285
270 143 368
288 163 422
306 187 463
320 213 501
333 239 536
352 266 573
253 142 187
278 153 228
295 164 294
299 168 389
312 185 455
327 212 499
339 241 539
349 268 574
360 294 605
272 196 207
301 200 249
331 203 303
336 204 400
338 210 492
345 243 542
353 275 582
362 303 615
376 326 642
289 255 228
316 268 264
347 273 314
375 261 391
361 248 524
355 283 593
363 314 629
377 339 656
394 360 678
309 292 261
333 314 294
359 338 332
379 358 387
368 348 525
357 337 643
377 356 672
397 375 691
416 393 710
327 319 298
348 343 336
366 371 382
375 403 443
373 433 523
364 423 642
391 414 691
417 419 717
438 431 736
342 344 337
359 368 379
373 396 430
382 426 490
393 452 552
398 460 634
408 463 703
433 469 732
457 474 755
354 366 376
369 391 421
381 417 472
395 443 527
412 465 580
427 478 643
435 484 713
455 494 748
477 503 772
373 390 418
379 411 459
394 434 508
410 457 557
430 476 606
448 492 660
462 501 721
478 510 763
498 521 789
259 137 203
280 152 242
295 165 302
303 173 384
317 188 446
335 209 488
352 232 523
368 255 555
399 273 580
282 164 227
305 179 267
325 195 318
334 203 399
343 213 476
359 234 522
375 258 558
388 283 590
401 307 620
302 206 251
329 215 293
354 228 341
369 240 410
373 244 500
384 261 558
398 287 595
409 314 628
419 340 657
319 264 270
346 272 312
375 277 364
403 283 423
409 285 512
412 291 596
419 321 636
426 350 669
436 375 696
337 307 297
361 327 334
389 342 378
419 347 435
446 340 510
436 332 629
431 363 684
440 390 713
453 412 734
356 335 330
379 358 367
404 381 408
431 406 453
451 426 512
446 421 636
438 413 730
456 431 750
474 448 766
373 358 365
395 381 404
418 405 448
437 432 498
447 462 561
450 489 636
448 485 735
472 482 770
495 488 790
388 379 400
408 402 441
427 426 488
443 452 542
454 479 601
468 502 661
477 511 733
492 517 783
514 524 807
420 396 426
420 421 478
436 445 526
451 469 579
467 492 633
485 512 686
501 526 743
515 534 795
535 543 822
285 160 238
305 176 276
322 192 327
333 202 398
344 214 466
359 232 512
376 253 547
395 274 579
421 298 610
306 186 264
329 203 302
349 220 348
363 233 413
371 242 491
384 258 544
400 280 580
415 302 611
432 324 639
327 221 290
351 234 331
375 251 376
393 268 431
402 276 509
410 288 577
425 309 616
439 332 646
452 356 673
345 272 311
371 280 355
397 289 404
421 304 455
435 317 522
440 322 605
451 340 652
464 365 683
474 389 710
361 319 334
386 335 375
413 345 423
441 351 480
466 359 539
474 364 620
478 374 690
487 400 722
495 426 749
379 351 364
403 371 402
428 392 446
454 409 495
483 416 554
508 415 625
504 413 725
504 441 765
513 465 787
396 374 396
419 395 435
443 418 479
468 442 526
493 466 576
516 487 633
518 489 738
516 487 807
533 503 821
415 395 428
434 415 470
457 438 514
480 461 562
501 486 615
516 513 675
524 538 743
530 541 819
552 543 842
441 415 463
450 433 503
469 455 549
489 479 599
508 503 653
524 526 710
540 547 767
555 558 824
573 566 856
311 179 266
329 199 307
345 216 353
359 229 415
369 240 483
382 256 534
399 275 573
421 298 610
438 319 635
330 206 298
349 224 335
369 243 379
386 259 433
396 270 504
407 283 563
422 302 602
437 323 632
461 346 665
349 238 325
371 254 365
393 273 408
412 291 457
425 305 522
434 315 591
447 332 635
461 353 666
475 375 692
367 281 349
391 292 392
415 306 438
437 324 486
455 341 541
463 351 614
473 365 669
487 386 701
500 408 728
383 329 371
408 342 414
433 351 463
458 362 515
480 378 568
495 392 630
501 400 700
513 420 738
525 443 764
400 364 398
423 383 438
448 400 484
474 413 536
500 421 593
522 433 651
533 442 723
540 457 775
549 479 801
418 391 428
439 409 469
463 430 513
487 452 561
513 471 613
540 483 671
564 488 736
567 494 813
572 519 839
441 415 463
454 429 500
477 451 545
501 473 593
525 496 643
550 519 697
575 543 753
585 553 835
592 559 873
457 432 495
477 451 535
490 467 578
513 490 626
536 512 677
558 536 731
578 559 788
595 580 847
612 589 890
335 204 303
355 223 336
375 245 368
393 266 416
394 267 508
404 278 585
421 298 610
438 319 635
450 333 651
355 225 334
375 246 367
390 265 406
406 283 457
418 296 519
428 308 579
442 325 624
461 346 665
478 368 690
375 246 367
391 272 397
410 293 438
429 312 484
445 329 540
455 341 604
466 356 652
480 375 685
495 395 713
395 279 400
410 307 426
431 324 469
452 343 515
470 362 565
483 376 626
493 389 683
505 408 719
519 429 746
406 345 410
427 350 451
450 362 498
473 377 546
493 395 595
510 413 649
521 426 711
532 443 753
544 463 781
424 399 433
442 392 474
466 407 521
490 420 572
514 433 625
534 450 677
549 466 735
559 480 787
570 499 816
441 415 463
458 423 501
480 440 547
504 459 596
529 476 649
553 490 705
574 504 761
586 519 818
596 537 852
457 432 495
477 451 535
494 462 577
518 484 625
542 505 676
566 526 730
590 545 786
611 560 845
622 576 888
467 441 515
494 466 568
509 481 607
531 501 656
554 523 707
577 545 760
601 567 815
624 589 872
643 608 917
