blink/scripts/LUTRecoverMerge_recoveredGrade2.3dl
# Generated by Nuke for flame
# Dimensions 17x17x17
# Input bit depth 10
# Output bit depth 10
0 64 128 192 256 320 384 448 512 575 639 703 767 831 895 959 1023 
0 0 0
10 9 14
31 29 44
55 52 79
77 72 109
95 90 136
112 106 160
128 121 183
144 136 205
159 150 227
176 166 251
190 180 271
205 194 292
219 207 312
233 220 332
247 233 352
260 246 371
10 9 14
37 35 53
60 57 86
80 75 113
97 91 138
113 107 161
129 122 184
144 136 206
159 150 227
174 164 248
189 179 270
205 194 292
219 207 312
233 220 332
247 233 352
260 246 371
274 258 391
31 29 44
60 57 86
80 76 114
97 92 139
114 107 162
129 122 184
144 136 206
159 151 227
174 164 248
188 178 269
203 192 289
219 207 312
233 220 332
247 233 352
260 246 371
274 258 391
287 271 410
55 52 79
80 75 113
97 92 139
114 108 162
129 122 185
145 137 206
160 151 228
174 165 249
189 178 269
203 192 289
217 205 309
233 220 332
247 233 352
260 246 371
274 258 391
287 271 410
300 284 429
77 72 109
97 91 138
114 107 162
129 122 185
145 137 207
160 151 228
174 165 249
189 179 269
203 192 290
217 205 309
231 218 329
246 232 351
260 246 371
274 258 391
287 271 410
300 284 429
314 296 447
95 90 136
113 107 161
129 122 184
145 137 206
160 151 228
174 165 249
189 179 270
203 192 290
217 205 310
231 218 329
245 231 349
259 245 370
274 258 391
287 271 410
300 284 429
314 296 447
327 309 466
112 106 160
129 122 184
144 136 206
160 151 228
174 165 249
189 179 270
203 192 290
217 205 310
231 218 330
245 231 349
258 244 368
272 257 389
287 271 410
300 284 429
314 296 447
327 309 466
340 321 484
128 121 183
144 136 206
159 151 227
174 165 249
189 179 269
203 192 290
217 205 310
231 218 330
245 231 349
258 244 369
272 257 388
286 270 408
300 284 429
314 296 447
327 309 466
340 321 484
352 333 503
144 136 205
159 150 227
174 164 248
189 178 269
203 192 290
217 205 310
231 218 330
245 231 349
258 244 369
272 257 388
285 269 407
300 284 429
314 296 447
327 309 466
340 321 484
352 333 503
365 345 521
159 150 227
174 164 248
188 178 269
203 192 289
217 205 309
231 218 329
245 231 349
258 244 369
272 257 388
285 269 407
299 283 427
314 296 447
327 309 466
340 321 484
352 333 503
365 345 521
378 357 539
176 166 251
189 179 270
203 192 289
217 205 309
231 218 329
245 231 349
258 244 368
272 257 388
285 269 407
299 283 427
314 296 447
327 309 466
340 321 484
352 333 503
365 345 521
378 357 539
390 369 557
190 180 271
205 194 292
219 207 312
233 220 332
246 232 351
259 245 370
272 257 389
286 270 408
300 284 429
314 296 447
327 309 466
340 321 484
352 333 503
365 345 521
378 357 539
390 369 557
403 381 575
205 194 292
219 207 312
233 220 332
247 233 352
260 246 371
274 258 391
287 271 410
300 284 429
314 296 447
327 309 466
340 321 484
352 333 503
365 345 521
378 357 539
390 369 557
403 381 575
415 392 593
219 207 312
233 220 332
247 233 352
260 246 371
274 258 391
287 271 410
300 284 429
314 296 447
327 309 466
340 321 484
352 333 503
365 345 521
378 357 539
390 369 557
403 381 575
415 392 593
428 404 610
233 220 332
247 233 352
260 246 371
274 258 391
287 271 410
300 284 429
314 296 447
327 309 466
340 321 484
352 333 503
365 345 521
378 357 539
390 369 557
403 381 575
415 392 593
428 404 610
440 415 628
247 233 352
260 246 371
274 258 391
287 271 410
300 284 429
314 296 447
327 309 466
340 321 484
352 333 503
365 345 521
378 357 539
390 369 557
403 381 575
415 392 593
428 404 610
440 415 628
452 427 645
260 246 371
274 258 391
287 271 410
300 284 429
314 296 447
327 309 466
340 321 484
352 333 503
365 345 521
378 357 539
390 369 557
403 381 575
415 392 593
428 404 610
440 415 628
452 427 645
464 438 662
10 9 14
37 35 53
60 57 86
80 75 113
97 91 138
113 107 161
129 122 184
144 136 206
159 150 227
174 164 248
189 179 270
205 194 292
219 207 312
233 220 332
247 233 352
260 246 371
274 258 391
37 35 53
64 60 91
81 77 115
98 92 139
114 108 162
129 122 184
144 137 206
159 151 227
174 164 248
188 178 269
203 192 289
219 207 312
233 220 332
247 233 352
260 246 371
274 258 391
287 271 410
60 57 86
81 77 115
98 93 140
114 108 163
130 123 185
145 137 207
160 151 228
174 165 249
189 178 269
203 192 289
217 205 309
232 219 330
247 233 352
260 246 371
274 258 391
287 271 410
300 284 429
80 75 113
98 92 139
114 108 163
130 123 185
145 137 207
160 151 228
175 165 249
189 179 270
203 192 290
217 205 310
231 218 329
245 231 349
260 246 371
274 258 391
287 271 410
300 284 429
314 296 447
97 91 138
114 108 162
130 123 185
145 137 207
160 151 228
175 165 249
189 179 270
204 192 290
218 206 310
231 218 330
245 231 349
258 244 368
274 258 391
287 271 410
300 284 429
314 296 447
327 309 466
113 107 161
129 122 184
145 137 207
160 151 228
175 165 249
189 179 270
204 193 290
218 206 310
232 219 330
245 231 349
258 244 369
272 257 388
286 270 408
300 284 429
314 296 447
327 309 466
340 321 484
129 122 184
144 137 206
160 151 228
175 165 249
189 179 270
204 193 290
218 206 310
232 219 330
245 232 350
259 244 369
272 257 388
285 269 407
299 283 427
314 296 447
327 309 466
340 321 484
352 333 503
144 136 206
159 151 227
174 165 249
189 179 270
204 192 290
218 206 310
232 219 330
245 232 350
259 244 369
272 257 388
285 269 407
298 282 426
312 295 446
327 309 466
340 321 484
352 333 503
365 345 521
159 150 227
174 164 248
189 178 269
203 192 290
218 206 310
232 219 330
245 232 350
259 244 369
272 257 388
285 269 407
298 282 426
311 294 444
326 308 465
340 321 484
352 333 503
365 345 521
378 357 539
174 164 248
188 178 269
203 192 289
217 205 310
231 218 330
245 231 349
259 244 369
272 257 388
285 269 407
298 282 426
312 294 444
325 307 463
340 321 484
352 333 503
365 345 521
378 357 539
390 369 557
189 179 270
203 192 289
217 205 309
231 218 329
245 231 349
258 244 369
272 257 388
285 269 407
298 282 426
312 294 444
325 307 463
338 320 483
352 333 503
365 345 521
378 357 539
390 369 557
403 381 575
205 194 292
219 207 312
232 219 330
245 231 349
258 244 368
272 257 388
285 269 407
298 282 426
311 294 444
325 307 463
338 320 483
352 333 503
365 345 521
378 357 539
390 369 557
403 381 575
415 392 593
219 207 312
233 220 332
247 233 352
260 246 371
274 258 391
286 270 408
299 283 427
312 295 446
326 308 465
340 321 484
352 333 503
365 345 521
378 357 539
390 369 557
403 381 575
415 392 593
428 404 610
233 220 332
247 233 352
260 246 371
274 258 391
287 271 410
300 284 429
314 296 447
327 309 466
340 321 484
352 333 503
365 345 521
378 357 539
390 369 557
403 381 575
415 392 593
428 404 610
440 415 628
247 233 352
260 246 371
274 258 391
287 271 410
300 284 429
314 296 447
327 309 466
340 321 484
352 333 503
365 345 521
378 357 539
390 369 557
403 381 575
415 392 593
428 404 610
440 415 628
452 427 645
260 246 371
274 258 391
287 271 410
300 284 429
314 296 447
327 309 466
340 321 484
352 333 503
365 345 521
378 357 539
390 369 557
403 381 575
415 392 593
428 404 610
440 415 628
452 427 645
464 438 662
274 258 391
287 271 410
300 284 429
314 296 447
327 309 466
340 321 484
352 333 503
365 345 521
378 357 539
390 369 557
403 381 575
415 392 593
428 404 610
440 415 628
452 427 645
464 438 662
476 450 679
31 29 44
60 57 86
80 76 114
97 92 139
114 107 162
129 122 184
144 136 206
159 151 227
174 164 248
188 178 269
203 192 289
219 207 312
233 220 332
247 233 352
260 246 371
274 258 391
287 271 410
60 57 86
81 77 115
98 93 140
114 108 163
130 123 185
145 137 207
160 151 228
174 165 249
189 178 269
203 192 289
217 205 309
232 219 330
247 233 352
260 246 371
274 258 391
287 271 410
300 284 429
80 76 114
98 93 140
115 109 164
130 123 186
145 137 207
160 151 228
175 165 249
189 179 270
203 192 290
217 205 310
231 218 329
245 231 349
260 246 371
274 258 391
287 271 410
300 284 429
314 296 447
97 92 139
114 108 163
130 123 186
145 137 208
160 152 229
175 165 250
189 179 270
204 193 290
218 206 310
231 219 330
245 231 349
258 244 368
272 257 389
287 271 410
300 284 429
314 296 447
327 309 466
114 107 162
130 123 185
145 137 207
160 152 229
175 166 250
190 179 270
204 193 291
218 206 311
232 219 330
245 232 350
259 244 369
272 257 388
285 269 407
300 284 429
314 296 447
327 309 466
340 321 484
129 122 184
145 137 207
160 151 228
175 165 250
190 179 270
204 193 291
218 206 311
232 219 331
246 232 350
259 244 369
272 257 388
285 269 407
298 282 426
314 296 447
327 309 466
340 321 484
352 333 503
144 136 206
160 151 228
175 165 249
189 179 270
204 193 291
218 206 311
232 219 331
246 232 350
259 245 370
272 257 389
285 270 407
299 282 426
311 294 444
326 308 465
340 321 484
352 333 503
365 345 521
159 151 227
174 165 249
189 179 270
204 193 290
218 206 311
232 219 331
246 232 350
259 245 370
272 257 389
286 270 408
299 282 426
312 294 445
325 307 463
338 320 483
352 333 503
365 345 521
378 357 539
174 164 248
189 178 269
203 192 290
218 206 310
232 219 330
246 232 350
259 245 370
272 257 389
286 270 408
299 282 426
312 295 445
325 307 463
337 319 481
351 332 501
365 345 521
378 357 539
390 369 557
188 178 269
203 192 289
217 205 310
231 219 330
245 232 350
259 244 369
272 257 389
286 270 408
299 282 426
312 295 445
325 307 463
337 319 481
350 331 500
364 344 520
378 357 539
390 369 557
403 381 575
203 192 289
217 205 309
231 218 329
245 231 349
259 244 369
272 257 388
285 270 407
299 282 426
312 295 445
325 307 463
338 319 481
350 331 500
363 343 518
378 357 539
390 369 557
403 381 575
415 392 593
219 207 312
232 219 330
245 231 349
258 244 368
272 257 388
285 269 407
299 282 426
312 294 445
325 307 463
337 319 481
350 331 500
363 343 518
376 356 537
390 369 557
403 381 575
415 392 593
428 404 610
233 220 332
247 233 352
260 246 371
272 257 389
285 269 407
298 282 426
311 294 444
325 307 463
337 319 481
350 331 500
363 343 518
376 356 537
390 369 557
403 381 575
415 392 593
428 404 610
440 415 628
247 233 352
260 246 371
274 258 391
287 271 410
300 284 429
314 296 447
326 308 465
338 320 483
351 332 501
364 344 520
378 357 539
390 369 557
403 381 575
415 392 593
428 404 610
440 415 628
452 427 645
260 246 371
274 258 391
287 271 410
300 284 429
314 296 447
327 309 466
340 321 484
352 333 503
365 345 521
378 357 539
390 369 557
403 381 575
415 392 593
428 404 610
440 415 628
452 427 645
464 438 662
274 258 391
287 271 410
300 284 429
314 296 447
327 309 466
340 321 484
352 333 503
365 345 521
378 357 539
390 369 557
403 381 575
415 392 593
428 404 610
440 415 628
452 427 645
464 438 662
476 450 679
287 271 410
300 284 429
314 296 447
327 309 466
340 321 484
352 333 503
365 345 521
378 357 539
390 369 557
403 381 575
415 392 593
428 404 610
440 415 628
452 427 645
464 438 662
476 450 679
488 461 696
55 52 79
80 75 113
97 92 139
114 108 162
129 122 185
145 137 206
160 151 228
174 165 249
189 178 269
203 192 289
217 205 309
233 220 332
247 233 352
260 246 371
274 258 391
287 271 410
300 284 429
80 75 113
98 92 139
114 108 163
130 123 185
145 137 207
160 151 228
175 165 249
189 179 270
203 192 290
217 205 310
231 218 329
245 231 349
260 246 371
274 258 391
287 271 410
300 284 429
