blink/scripts/LUTRecoverMerge_recoveredGrade3.3dl
# Generated by Nuke for flame
# Dimensions 17x17x17
# Input bit depth 10
# Output bit depth 10
0 256 512 767 1023
0 0 0
55 52 218
115 108 335
165 156 415
214 202 492
71 152 93
87 175 268
147 192 391
203 217 473
259 245 548
135 231 182
159 263 303
189 288 439
239 316 515
290 342 581
187 284 255
220 321 344
243 341 484
283 370 563
327 408 622
236 336 325
280 372 389
297 386 526
327 409 620
369 440 667
148 55 79
171 69 253
195 132 383
226 189 469
255 241 542
189 179 117
190 180 271
211 199 481
262 248 543
306 289 593
217 265 217
233 328 320
239 334 510
300 341 592
350 359 647
248 321 303
282 369 392
308 394 526
341 415 630
388 437 685
276 368 381
325 401 453
362 433 554
390 453 666
430 478 725
229 112 165
261 134 285
288 163 422
320 213 501
352 266 573
272 196 207
331 203 303
338 210 492
353 275 582
376 326 642
309 292 261
359 338 332
368 348 525
377 356 672
416 393 710
342 344 337
373 396 430
393 452 552
408 463 703
457 474 755
373 390 418
394 434 508
430 476 606
462 501 721
498 521 789
285 160 238
322 192 327
344 214 466
376 253 547
421 298 610
327 221 290
375 251 376
402 276 509
425 309 616
452 356 673
361 319 334
413 345 423
466 359 539
478 374 690
495 426 749
396 374 396
443 418 479
493 466 576
518 489 738
533 503 821
441 415 463
469 455 549
508 503 653
540 547 767
573 566 856
335 204 303
375 245 368
394 267 508
421 298 610
450 333 651
375 246 367
410 293 438
445 329 540
466 356 652
495 395 713
406 345 410
450 362 498
493 395 595
521 426 711
544 463 781
441 415 463
480 440 547
529 476 649
574 504 761
596 537 852
467 441 515
509 481 607
554 523 707
601 567 815
643 608 917
