blink/scripts/LUTRecoverMerge_recoveredGrade2.3dl
# Generated by Nuke for flame
# Dimensions 17x17x17
# Input bit depth 10
# Output bit depth 10
0 128 256 384 512 639 767 895 1023
0 0 0
31 29 44
77 72 109
112 106 160
144 136 205
176 166 251
205 194 292
233 220 332
260 246 371
31 29 44
80 76 114
114 107 162
144 136 206
174 164 248
203 192 289
233 220 332
260 246 371
287 271 410
77 72 109
114 107 162
145 137 207
174 165 249
203 192 290
231 218 329
260 246 371
287 271 410
314 296 447
112 106 160
144 136 206
174 165 249
203 192 290
231 218 330
258 244 368
287 271 410
314 296 447
340 321 484
144 136 205
174 164 248
203 192 290
231 218 330
258 244 369
285 269 407
314 296 447
340 321 484
365 345 521
176 166 251
203 192 289
231 218 329
258 244 368
285 269 407
314 296 447
340 321 484
365 345 521
390 369 557
205 194 292
233 220 332
260 246 371
287 271 410
314 296 447
340 321 484
365 345 521
390 369 557
415 392 593
233 220 332
260 246 371
287 271 410
314 296 447
340 321 484
365 345 521
390 369 557
415 392 593
440 415 628
260 246 371
287 271 410
314 296 447
340 321 484
365 345 521
390 369 557
415 392 593
440 415 628
464 438 662
31 29 44
80 76 114
114 107 162
144 136 206
174 164 248
203 192 289
233 220 332
260 246 371
287 271 410
80 76 114
115 109 164
145 137 207
175 165 249
203 192 290
231 218 329
260 246 371
287 271 410
314 296 447
114 107 162
145 137 207
175 166 250
204 193 291
232 219 330
259 244 369
285 269 407
314 296 447
340 321 484
144 136 206
175 165 249
204 193 291
232 219 331
259 245 370
285 270 407
311 294 444
340 321 484
365 345 521
174 164 248
203 192 290
232 219 330
259 245 370
286 270 408
312 295 445
337 319 481
365 345 521
390 369 557
203 192 289
231 218 329
259 244 369
285 270 407
312 295 445
338 319 481
363 343 518
390 369 557
415 392 593
233 220 332
260 246 371
285 269 407
311 294 444
337 319 481
363 343 518
390 369 557
415 392 593
440 415 628
260 246 371
287 271 410
314 296 447
340 321 484
365 345 521
390 369 557
415 392 593
440 415 628
464 438 662
287 271 410
314 296 447
340 321 484
365 345 521
390 369 557
415 392 593
440 415 628
464 438 662
488 461 696
77 72 109
114 107 162
145 137 207
174 165 249
203 192 290
231 218 329
260 246 371
287 271 410
314 296 447
114 107 162
145 137 207
175 166 250
204 193 291
232 219 330
259 244 369
285 269 407
314 296 447
340 321 484
145 137 207
175 166 250
205 194 292
232 220 331
259 245 370
286 270 408
312 294 445
340 321 484
365 345 521
174 165 249
204 193 291
232 220 331
260 245 371
286 270 409
312 295 445
338 319 482
363 343 518
390 369 557
203 192 290
232 219 330
259 245 370
286 270 409
313 295 446
338 320 482
363 343 518
388 367 553
415 392 593
231 218 329
259 244 369
286 270 408
312 295 445
338 320 482
363 343 519
388 367 554
413 390 589
440 415 628
260 246 371
285 269 407
312 294 445
338 319 482
363 343 518
388 367 554
413 390 589
437 413 624
464 438 662
287 271 410
314 296 447
340 321 484
363 343 518
388 367 553
413 390 589
437 413 624
464 438 662
488 461 696
314 296 447
340 321 484
365 345 521
390 369 557
415 392 593
440 415 628
464 438 662
488 461 696
512 484 731
112 106 160
144 136 206
174 165 249
203 192 290
231 218 330
258 244 368
287 271 410
314 296 447
340 321 484
144 136 206
175 165 249
204 193 291
232 219 331
259 245 370
285 270 407
311 294 444
340 321 484
365 345 521
174 165 249
204 193 291
232 220 331
260 245 371
286 270 409
312 295 445
338 319 482
363 343 518
390 369 557
203 192 290
232 219 331
260 245 371
287 271 410
313 296 447
339 320 483
363 343 519
388 367 554
415 392 593
231 218 330
259 245 370
286 270 409
313 296 447
339 320 484
364 344 519
389 367 555
413 390 589
437 413 624
258 244 368
285 270 407
312 295 445
339 320 483
364 344 519
389 368 555
414 391 590
437 413 624
461 435 658
287 271 410
311 294 444
338 319 482
363 343 519
389 367 555
414 391 590
438 413 625
461 436 658
484 458 691
314 296 447
340 321 484
363 343 518
388 367 554
413 390 589
437 413 624
461 436 658
485 458 692
508 480 725
340 321 484
365 345 521
390 369 557
415 392 593
437 413 624
461 435 658
484 458 691
508 480 725
536 506 764
144 136 205
174 164 248
203 192 290
231 218 330
258 244 369
285 269 407
314 296 447
340 321 484
365 345 521
174 164 248
203 192 290
232 219 330
259 245 370
286 270 408
312 295 445
337 319 481
365 345 521
390 369 557
203 192 290
232 219 330
259 245 370
286 270 409
313 295 446
338 320 482
363 343 518
388 367 553
415 392 593
231 218 330
259 245 370
286 270 409
313 296 447
339 320 484
364 344 519
389 367 555
413 390 589
437 413 624
258 244 369
286 270 408
313 295 446
339 320 484
365 345 521
390 368 556
414 391 591
438 413 625
461 435 658
285 269 407
312 295 445
338 320 482
364 344 519
390 368 556
415 392 592
439 414 626
462 436 659
485 458 692
314 296 447
337 319 481
363 343 518
389 367 555
414 391 591
439 414 626
462 437 660
486 459 693
509 481 726
340 321 484
365 345 521
388 367 553
413 390 589
438 413 625
462 436 659
486 459 693
509 481 726
532 502 758
365 345 521
390 369 557
415 392 593
437 413 624
461 435 658
485 458 692
509 481 726
532 502 758
554 523 790
176 166 251
203 192 289
231 218 329
258 244 368
285 269 407
314 296 447
340 321 484
365 345 521
390 369 557
203 192 289
231 218 329
259 244 369
285 270 407
312 295 445
338 319 481
363 343 518
390 369 557
415 392 593
231 218 329
259 244 369
286 270 408
312 295 445
338 320 482
363 343 519
388 367 554
413 390 589
440 415 628
258 244 368
285 270 407
312 295 445
339 320 483
364 344 519
389 368 555
414 391 590
437 413 624
461 435 658
285 269 407
312 295 445
338 320 482
364 344 519
390 368 556
415 392 592
439 414 626
462 436 659
485 458 692
314 296 447
338 319 481
363 343 519
389 368 555
415 392 592
440 415 628
463 438 661
486 460 694
509 481 726
340 321 484
363 343 518
388 367 554
414 391 590
439 414 626
463 438 661
487 460 695
510 482 728
533 503 760
365 345 521
390 369 557
413 390 589
437 413 624
462 436 659
486 460 694
510 482 728
533 504 761
555 524 792
390 369 557
415 392 593
440 415 628
461 435 658
485 458 692
509 481 726
533 503 760
555 524 792
577 544 823
205 194 292
233 220 332
260 246 371
287 271 410
314 296 447
340 321 484
365 345 521
390 369 557
415 392 593
233 220 332
260 246 371
285 269 407
311 294 444
337 319 481
363 343 518
390 369 557
415 392 593
440 415 628
260 246 371
285 269 407
312 294 445
338 319 482
363 343 518
388 367 554
413 390 589
437 413 624
464 438 662
287 271 410
311 294 444
338 319 482
363 343 519
389 367 555
414 391 590
438 413 625
461 436 658
484 458 691
314 296 447
337 319 481
363 343 518
389 367 555
414 391 591
439 414 626
462 437 660
486 459 693
509 481 726
340 321 484
363 343 518
388 367 554
414 391 590
439 414 626
463 438 661
487 460 695
510 482 728
533 503 760
365 345 521
390 369 557
413 390 589
438 413 625
462 437 660
487 460 695
512 484 731
535 505 763
556 525 793
390 369 557
415 392 593
437 413 624
461 436 658
486 459 693
510 482 728
535 505 763
558 527 795
579 547 826
415 392 593
440 415 628
464 438 662
484 458 691
509 481 726
533 503 760
556 525 793
579 547 826
600 566 855
233 220 332
260 246 371
287 271 410
314 296 447
340 321 484
365 345 521
390 369 557
415 392 593
440 415 628
260 246 371
287 271 410
314 296 447
340 321 484
365 345 521
390 369 557
415 392 593
440 415 628
464 438 662
287 271 410
314 296 447
340 321 484
363 343 518
388 367 553
413 390 589
437 413 624
464 438 662
488 461 696
314 296 447
340 321 484
363 343 518
388 367 554
413 390 589
437 413 624
461 436 658
485 458 692
508 480 725
340 321 484
365 345 521
388 367 553
413 390 589
438 413 625
462 436 659
486 459 693
509 481 726
532 502 758
365 345 521
390 369 557
413 390 589
437 413 624
462 436 659
486 460 694
510 482 728
533 504 761
555 524 792
390 369 557
415 392 593
437 413 624
461 436 658
486 459 693
510 482 728
535 505 763
558 527 795
579 547 826
415 392 593
440 415 628
464 438 662
485 458 692
509 481 726
533 504 761
558 527 795
582 550 830
602 568 859
440 415 628
464 438 662
488 461 696
508 480 725
532 502 758
555 524 792
579 547 826
602 568 859
622 587 888
260 246 371
287 271 410
314 296 447
340 321 484
365 345 521
390 369 557
415 392 593
440 415 628
464 438 662
287 271 410
314 296 447
340 321 484
365 345 521
390 369 557
415 392 593
440 415 628
464 438 662
488 461 696
314 296 447
340 321 484
365 345 521
390 369 557
415 392 593
440 415 628
464 438 662
488 461 696
512 484 731
340 321 484
365 345 521
390 369 557
415 392 593
437 413 624
461 435 658
484 458 691
508 480 725
536 506 764
365 345 521
390 369 557
415 392 593
437 413 624
461 435 658
485 458 692
509 481 726
532 502 758
554 523 790
390 369 557
415 392 593
440 415 628
461 435 658
485 458 692
509 481 726
533 503 760
555 524 792
577 544 823
415 392 593
440 415 628
464 438 662
484 458 691
509 481 726
533 503 760
556 525 793
579 547 826
600 566 855
440 415 628
464 438 662
488 461 696
508 480 725
532 502 758
555 524 792
579 547 826
602 568 859
622 587 888
464 438 662
488 461 696
512 484 731
536 506 764
554 523 790
577 544 823
600 566 855
622 587 888
643 608 917
