blink/scripts/LUTRecover_recoveredGrade.3dl
# Generated by Nuke for flame
# Dimensions 17x17x17
# Input bit depth 10
# Output bit depth 10
0 128 256 384 512 639 767 895 1023
0 0 0
3 3 116
6 6 247
9 9 365
10 10 441
12 12 514
15 15 618
17 17 719
18 18 786
16 83 16
19 87 133
23 91 263
25 92 380
26 93 457
29 96 531
32 100 634
33 100 734
35 101 801
34 176 35
37 179 153
41 182 281
43 185 396
44 187 475
46 188 551
50 191 652
51 193 750
52 195 819
50 261 50
53 263 167
56 265 296
59 269 414
61 271 491
62 272 565
65 273 668
67 277 768
69 279 836
61 315 61
64 318 177
67 321 307
69 323 426
71 325 502
73 328 575
75 330 679
77 332 779
79 334 846
71 368 71
74 371 188
78 375 318
79 377 435
81 378 512
83 380 586
86 384 689
88 385 789
89 386 857
85 442 86
88 445 204
92 447 332
94 450 447
95 452 526
98 454 602
101 456 703
103 458 801
104 460 871
99 513 99
102 516 216
105 518 345
108 521 463
109 524 540
111 525 614
114 527 717
116 530 817
117 532 884
108 561 108
111 564 224
114 567 355
116 570 473
118 572 549
121 574 622
123 576 726
125 578 827
127 580 894
77 5 5
81 8 122
86 12 252
87 14 369
87 15 446
90 18 520
94 21 623
95 23 723
95 24 791
94 88 21
98 92 139
103 97 268
103 98 384
104 99 462
107 102 537
111 106 640
111 106 738
112 107 807
114 181 40
117 184 159
121 187 286
123 190 400
124 192 480
126 194 557
130 196 657
131 198 755
132 200 824
128 265 55
132 267 173
136 269 302
137 273 418
138 275 496
141 277 571
144 278 673
145 282 772
146 284 841
138 320 66
142 323 183
146 326 313
147 329 430
148 331 507
151 333 581
155 335 684
156 337 784
156 339 851
149 373 76
153 377 194
157 381 323
158 382 439
159 383 517
162 386 592
166 390 694
166 391 793
167 391 862
165 447 91
168 450 210
172 453 337
174 455 452
175 457 531
177 459 608
181 462 708
182 464 806
183 465 875
177 518 104
180 520 222
184 522 350
186 526 467
187 529 545
190 530 620
193 531 722
194 534 821
195 537 889
185 567 113
189 569 230
193 572 360
194 575 477
195 577 554
198 578 628
202 581 731
203 583 831
204 585 899
165 11 12
167 14 130
171 18 258
173 20 373
175 22 452
177 24 528
179 26 629
181 28 727
183 30 796
181 96 28
184 100 148
187 104 274
190 105 389
191 107 468
193 109 545
196 112 646
198 114 743
199 114 812
199 187 46
201 190 167
204 193 291
207 196 404
209 198 486
210 199 564
213 202 663
215 204 759
217 206 830
214 270 61
217 272 181
220 274 307
223 277 422
225 280 502
226 281 578
229 282 678
231 286 776
233 288 846
226 326 72
228 329 191
231 332 318
234 334 433
236 336 513
237 338 588
240 341 690
242 343 788
244 344 857
236 380 83
239 384 202
242 388 329
244 389 443
246 391 523
248 393 600
251 396 700
253 398 798
254 399 867
250 452 97
252 455 218
255 458 342
258 461 456
260 463 537
262 465 615
264 467 714
266 469 810
268 471 881
263 523 110
266 525 230
269 527 356
272 531 470
273 533 550
275 534 627
277 536 727
280 539 825
282 541 895
273 572 120
275 575 238
278 578 365
281 581 481
283 582 560
285 584 636
287 586 737
290 589 835
291 591 904
244 16 16
246 19 133
247 22 263
252 25 380
254 27 457
255 29 531
256 31 634
260 33 734
262 35 802
259 100 33
261 103 150
263 108 279
267 109 395
270 110 473
271 112 548
272 116 650
275 117 749
278 118 818
275 192 51
278 195 170
280 198 296
284 201 411
286 203 491
287 204 568
289 207 668
292 209 765
294 211 835
293 276 67
295 278 184
296 280 312
301 284 429
304 287 507
304 288 582
305 289 684
309 293 783
312 295 852
304 331 77
306 334 194
308 337 323
312 340 441
315 342 518
316 343 592
317 346 695
320 348 795
323 350 863
314 384 87
316 387 205
318 392 334
322 393 450
324 394 528
325 396 603
327 400 705
330 401 804
332 402 872
327 458 102
329 460 221
331 463 347
335 466 462
337 468 542
338 470 619
340 472 719
343 474 816
345 476 886
342 529 115
344 531 233
345 533 361
349 537 478
352 539 556
353 541 630
354 542 732
358 545 832
360 547 901
352 578 124
354 580 241
355 583 371
360 586 488
362 588 565
363 589 639
364 591 742
368 594 842
370 596 910
294 19 19
297 22 135
300 25 266
303 28 384
305 30 460
307 32 534
309 34 637
311 37 738
313 38 805
310 102 36
313 106 152
316 111 283
319 111 400
321 113 477
322 115 551
325 119 654
327 120 753
329 121 821
328 196 54
331 198 172
334 201 300
337 204 415
339 206 494
341 208 570
343 210 671
345 213 769
347 214 839
345 280 70
347 282 186
350 284 316
353 288 433
355 291 511
356 292 585
359 293 687
361 297 787
363 299 855
355 335 80
358 337 196
361 340 327
363 343 445
365 345 521
367 347 594
370 349 698
371 351 799
373 353 866
365 387 91
368 390 207
371 395 337
374 396 454
376 397 531
377 400 606
380 403 709
382 404 808
384 405 876
379 461 105
382 464 223
385 467 351
388 470 466
390 472 545
392 473 621
394 476 722
396 478 821
398 480 890
393 533 118
396 535 235
399 537 365
402 541 482
403 543 559
405 544 633
408 546 736
410 549 836
411 551 904
402 581 128
405 584 243
408 587 374
411 589 493
413 591 569
415 593 642
417 595 746
419 597 846
421 599 913
343 22 22
347 26 139
351 29 270
353 32 387
354 33 463
356 35 538
360 38 641
361 40 740
362 41 808
360 106 39
363 110 157
368 115 286
369 115 402
370 117 480
373 119 555
377 123 657
377 124 756
378 125 824
379 199 57
382 202 177
386 205 303
388 208 418
389 210 497
392 211 575
395 214 675
396 216 772
397 218 842
394 282 73
397 285 191
401 287 319
403 291 436
404 293 514
406 294 589
410 296 690
411 299 790
412 301 858
404 338 83
407 341 200
411 344 330
413 347 447
414 348 524
417 350 598
420 352 701
422 355 801
423 356 869
415 391 94
418 394 211
423 399 341
424 400 457
425 401 534
427 403 610
431 407 712
432 408 811
433 409 879
430 464 109
434 467 228
437 470 354
439 473 469
440 475 549
443 477 625
446 479 726
447 481 823
448 483 893
442 536 122
446 538 239
450 540 368
452 544 484
453 546 562
455 547 637
458 548 739
460 552 838
461 554 907
452 584 131
455 587 248
459 590 377
461 592 495
462 594 572
464 596 646
467 598 749
469 600 849
470 602 916
413 27 28
415 31 146
418 34 274
421 36 389
423 38 468
425 40 544
427 43 645
429 45 743
431 46 813
429 112 44
432 116 164
435 120 291
437 122 405
439 123 484
441 125 561
444 129 662
446 130 759
447 131 829
447 203 62
449 206 183
452 209 308
455 212 421
457 214 502
459 216 580
461 218 679
463 220 775
465 222 846
462 286 78
465 288 197
468 290 323
471 294 438
473 296 518
474 298 595
476 299 695
479 302 792
481 305 862
473 342 89
476 345 207
479 348 335
482 351 450
484 353 529
485 355 605
488 357 706
490 359 804
492 361 874
484 397 99
486 400 218
490 404 345
492 406 460
494 407 539
496 409 616
498 412 716
500 414 814
502 415 884
498 469 114
500 472 234
503 475 359
506 477 472
508 479 553
510 481 631
512 484 730
514 486 826
516 488 897
511 539 127
514 541 246
516 543 372
519 547 487
521 549 567
523 551 643
525 552 744
528 555 841
529 558 911
521 589 136
523 591 254
526 594 382
529 597 497
531 599 576
533 600 652
535 602 753
537 605 851
539 607 921
480 32 32
482 35 149
484 38 278
487 40 396
490 42 473
491 44 547
493 47 650
496 49 749
498 50 818
495 115 48
498 119 166
500 123 295
503 124 411
505 125 489
507 128 564
509 132 666
512 133 765
514 134 833
512 208 67
514 211 186
516 214 312
520 216 427
522 218 507
523 220 583
525 222 684
528 225 781
530 226 851
529 292 82
532 294 200
533 296 328
537 300 445
540 302 523
541 303 597
542 304 699
545 308 799
548 310 867
541 347 93
543 349 209
544 353 339
548 355 456
551 357 534
552 359 608
553 361 710
556 364 810
559 365 878
550 400 103
552 403 221
555 407 349
558 409 466
560 410 544
562 412 618
564 416 721
567 417 820
569 418 888
563 473 118
565 476 237
567 479 363
571 482 478
573 483 558
575 485 634
576 488 735
579 490 832
582 492 902
578 545 131
580 547 248
582 549 376
586 553 494
588 555 571
589 556 646
590 557 748
594 561 848
596 563 916
588 593 140
590 596 257
592 598 386
595 602 504
598 604 581
600 605 655
601 607 758
604 610 858
607 612 926
524 35 35
527 38 151
530 41 281
533 43 400
535 45 476
537 47 549
539 49 653
541 51 753
543 53 820
541 117 51
543 121 168
546 126 298
549 127 415
551 128 492
553 130 566
555 134 669
557 135 768
559 136 836
558 211 69
561 214 188
563 217 315
567 219 430
569 221 510
570 223 586
572 225 687
575 227 785
577 229 854
575 296 85
577 297 201
580 299 331
583 304 448
585 306 526
587 307 600
589 308 702
591 312 803
593 314 871
585 350 95
588 353 211
591 356 342
593 358 460
595 360 536
598 362 609
600 364 713
602 366 814
604 368 881
595 402 106
598 405 223
601 410 352
604 411 470
606 413 547
607 415 621
610 419 724
612 420 824
614 421 891
609 476 121
612 479 239
615 482 366
618 485 482
620 487 561
621 488 637
623 491 738
626 493 836
628 495 905
623 548 133
626 550 250
628 552 380
631 556 497
634 558 574
635 559 648
637 561 751
640 565 851
642 566 919
633 596 143
635 599 259
638 602 390
641 604 508
643 607 584
645 609 657
647 611 761
649 613 861
651 615 928
