blink/scripts/LUTRecover_recoveredGrade.3dl
# Generated by Nuke for flame
# Dimensions 17x17x17
# Input bit depth 10
# Output bit depth 10
0 64 128 192 256 320 384 448 512 575 639 703 767 831 895 959 1023 
0 0 0
2 2 93
3 3 116
5 5 205
6 6 247
7 7 288
9 9 365
9 9 374
10 10 441
12 12 505
12 12 514
13 13 584
15 15 618
16 16 653
17 17 719
17 17 727
18 18 786
13 66 13
15 68 105
17 74 132
19 77 218
20 73 259
21 79 303
22 79 377
22 77 392
24 83 455
26 80 514
26 83 530
28 86 597
28 81 631
30 88 667
31 88 731
31 85 744
33 92 800
16 83 16
19 87 115
19 87 133
21 88 221
23 91 263
23 90 304
25 92 380
25 93 393
26 93 457
29 96 520
29 96 531
30 97 599
32 100 634
32 98 669
33 100 734
34 102 745
35 101 801
28 147 28
31 148 130
31 149 144
33 152 234
34 152 275
35 153 316
37 155 393
37 155 403
38 157 469
40 158 533
40 159 543
42 160 612
43 161 646
43 162 681
45 163 747
45 163 755
46 165 814
34 176 35
37 178 128
37 179 153
39 181 238
41 182 281
41 183 323
43 185 396
43 185 414
44 187 475
46 188 534
46 188 551
48 190 617
50 191 652
50 192 687
51 193 750
52 193 766
52 195 819
40 206 40
42 209 141
42 209 156
45 211 245
46 212 286
47 213 328
48 214 405
49 215 415
50 216 481
51 218 544
51 218 554
54 219 623
55 221 658
55 222 692
57 222 758
57 223 767
58 224 826
50 261 50
53 262 149
53 263 167
55 266 255
56 265 296
57 267 338
59 269 414
59 268 426
61 271 491
62 271 553
62 272 565
64 274 634
65 273 668
66 275 703
67 277 768
67 276 779
69 279 836
52 267 52
55 273 148
55 272 170
56 273 256
59 277 299
59 275 340
61 277 415
62 279 431
62 277 493
64 282 553
64 281 568
65 281 635
67 286 670
67 283 705
69 285 769
70 287 783
70 285 837
61 315 61
64 317 163
64 318 177
65 320 265
67 321 307
68 322 349
69 323 426
70 324 435
71 325 502
73 327 566
73 328 575
74 329 644
75 330 679
76 331 714
77 332 779
78 333 788
79 334 846
70 362 70
72 360 165
72 362 188
75 365 274
76 363 315
77 368 358
78 368 432
78 367 448
80 372 511
81 370 570
82 372 585
84 374 652
84 372 687
85 376 723
87 377 786
87 375 800
88 380 855
71 368 71
74 371 170
74 371 188
76 372 276
78 375 318
78 375 359
79 377 435
80 378 447
81 378 512
83 381 574
83 380 586
85 381 654
86 384 689
86 383 723
88 385 789
89 386 800
89 386 857
80 417 80
83 419 181
83 420 196
85 421 286
87 422 327
87 424 368
89 425 445
89 425 455
90 427 521
93 428 585
93 429 595
94 430 664
96 431 698
96 432 733
98 433 799
98 433 808
99 435 866
85 442 86
88 444 179
88 445 204
91 446 289
92 447 332
92 448 374
94 450 447
94 451 465
95 452 526
98 453 585
98 454 602
99 455 668
101 456 703
101 457 738
103 458 801
103 459 817
104 460 871
90 466 90
93 469 191
93 469 206
95 471 295
96 473 337
97 473 378
98 475 454
99 475 464
100 477 531
102 479 595
102 479 604
103 480 673
105 481 708
105 482 742
107 483 808
107 484 817
108 485 876
99 513 99
102 515 198
102 516 216
104 518 303
105 518 345
106 520 387
108 521 463
108 521 475
109 524 540
111 524 602
111 525 614
113 527 682
114 527 717
114 529 752
116 530 817
116 530 827
117 532 884
100 519 100
104 524 196
104 523 218
105 525 304
107 529 347
107 526 389
109 529 463
110 531 479
111 530 541
113 534 602
113 533 616
114 534 683
116 538 719
116 535 753
117 538 817
118 539 831
119 538 885
108 561 108
111 564 210
111 564 224
113 566 313
114 567 355
115 568 396
116 570 473
117 570 482
118 572 549
121 573 614
121 574 622
122 575 691
123 576 726
124 577 761
125 578 827
126 578 835
127 580 894
62 4 4
64 7 96
69 7 122
73 10 209
68 11 251
75 11 293
75 13 367
73 14 383
78 15 445
75 17 505
78 17 520
81 19 587
77 20 622
83 20 657
83 22 721
81 22 735
86 23 790
75 70 18
74 70 106
78 74 137
81 77 221
78 74 263
83 79 306
83 79 378
82 78 398
87 83 458
85 81 515
87 83 535
90 86 599
86 83 634
92 87 671
92 88 732
90 86 750
95 91 803
82 89 21
81 93 114
83 92 140
86 94 225
84 96 267
89 96 309
89 98 383
88 99 401
92 99 461
90 102 520
92 102 537
95 103 603
92 105 639
97 104 674
97 106 737
96 108 753
101 107 806
96 151 33
94 152 127
97 153 151
100 155 237
96 155 279
102 157 321
102 159 395
100 159 411
106 161 474
103 161 533
106 162 549
109 164 615
104 164 650
110 166 686
110 167 749
108 167 763
114 169 818
97 180 39
96 182 127
98 183 159
101 185 241
99 186 285
103 187 328
103 189 398
103 189 420
106 191 479
105 192 535
107 193 556
110 194 620
107 195 656
111 196 692
112 197 753
111 197 772
115 199 823
107 211 44
105 213 139
108 213 162
112 216 249
108 217 291
114 217 333
114 219 407
112 220 423
117 221 485
115 223 545
117 223 560
121 225 627
116 226 662
122 226 697
122 228 761
120 228 775
126 229 830
116 264 55
114 264 147
117 265 173
120 268 258
116 267 300
122 270 343
122 271 416
121 271 434
126 274 495
123 274 553
126 275 571
129 277 637
125 276 672
131 279 707
131 280 770
129 279 786
134 282 840
116 275 57
115 279 147
117 278 177
120 280 260
118 283 303
122 282 346
123 284 417
122 286 438
126 285 497
125 288 555
126 288 574
129 289 639
127 292 675
131 290 710
131 293 772
130 294 790
134 293 841
129 320 66
127 322 160
130 322 183
133 324 270
129 325 311
135 326 354
135 328 428
133 328 443
139 330 506
136 331 566
139 332 581
142 333 648
137 334 683
144 335 718
143 336 782
141 337 795
147 338 850
133 363 74
131 362 163
134 364 193
137 367 277
134 365 319
139 369 362
139 370 434
138 369 454
143 373 514
141 372 571
143 373 591
146 376 655
143 374 690
147 377 727
148 378 788
146 377 806
151 381 858
137 373 76
136 376 168
138 376 194
141 378 279
138 380 322
143 380 364
144 382 437
142 383 455
147 383 516
145 386 575
147 386 592
150 387 658
147 389 693
152 389 729
152 391 791
150 391 807
155 391 861
148 421 85
146 422 179
148 423 203
152 426 289
148 426 331
154 428 373
154 429 447
152 429 463
158 431 526
155 432 585
158 433 601
161 435 668
157 435 702
163 436 738
163 437 801
161 437 815
166 439 870
148 446 90
147 448 179
149 449 210
152 451 292
150 451 336
154 452 379
154 454 449
154 455 471
157 456 530
156 457 586
158 458 607
161 459 671
159 460 707
162 461 743
163 462 804
162 463 823
166 464 874
158 471 95
156 474 189
158 474 213
162 476 299
158 477 341
164 478 383
164 480 457
162 480 473
168 482 535
165 483 595
167 483 610
170 485 677
166 486 712
172 486 747
172 488 811
170 489 825
176 490 880
165 517 104
163 517 196
166 519 222
169 521 307
165 520 349
171 523 392
171 524 465
170 524 482
175 527 544
172 527 603
175 528 620
178 530 686
174 529 720
179 532 756
179 533 819
178 532 834
183 535 888
164 526 106
164 530 196
166 530 225
169 531 308
167 534 352
171 533 394
171 536 466
170 537 486
175 537 546
173 540 603
175 539 623
178 540 687
175 543 723
179 542 758
180 544 820
179 545 838
183 545 890
176 566 113
174 568 208
177 568 231
181 570 317
176 571 359
183 573 401
182 574 475
180 574 491
186 576 554
184 577 613
186 578 628
189 579 696
185 579 730
191 581 765
191 582 830
189 582 843
195 584 898
77 5 5
81 8 104
81 8 122
82 10 210
86 12 252
84 12 293
87 14 369
88 14 381
87 15 446
90 18 509
90 18 520
91 19 588
94 21 623
93 21 658
95 23 723
96 23 734
95 24 791
93 76 19
96 74 111
96 77 138
97 80 223
99 76 265
100 82 308
101 82 380
102 81 398
103 86 460
105 84 518
105 86 535
106 89 601
108 85 636
108 91 672
109 91 735
110 89 750
111 95 804
94 88 21
98 93 118
98 92 139
99 94 226
103 97 268
101 95 310
103 98 384
105 99 400
104 99 462
108 102 523
107 102 537
108 103 604
111 106 640
109 104 674
111 106 738
113 108 752
112 107 807
106 152 33
110 153 131
109 154 150
111 156 238
113 157 280
113 158 322
115 160 397
116 160 410
116 162 474
119 163 536
118 163 549
119 165 616
122 165 651
121 167 686
123 168 751
124 168 762
124 170 819
114 181 40
117 184 131
117 184 159
118 186 243
121 187 286
121 188 328
123 190 400
124 190 420
124 192 480
126 193 538
126 194 557
127 195 621
130 196 657
129 197 693
131 198 755
132 199 772
132 200 824
117 211 45
121 214 143
121 214 162
122 216 250
125 218 292
124 218 333
126 220 409
128 220 422
127 221 486
130 224 548
130 224 560
131 225 628
134 227 663
133 227 698
135 229 762
136 229 774
135 230 830
128 265 55
132 266 151
132 267 173
133 270 260
136 269 302
135 272 344
137 273 418
138 273 433
138 275 496
141 276 557
141 277 571
142 279 638
144 278 673
144 281 708
145 282 772
146 281 785
146 284 841
131 274 57
135 279 151
135 278 176
136 279 261
139 283 304
138 281 346
140 284 419
142 286 438
141 284 498
144 289 557
144 288 574
144 288 640
148 292 676
146 290 710
148 293 773
150 294 789
149 293 842
138 320 66
142 323 165
142 323 183
143 325 271
146 326 313
145 327 354
147 329 430
149 329 442
148 331 507
151 332 569
151 333 581
152 334 649
155 335 684
153 336 719
156 337 784
157 338 794
156 339 851
148 365 75
151 365 167
152 367 193
153 369 279
155 368 321
155 372 363
157 372 436
158 371 454
158 375 515
161 374 574
161 376 591
162 378 657
164 376 692
163 380 728
165 381 790
166 380 806
166 383 860
149 373 76
153 377 172
153 377 194
154 378 281
157 381 323
156 380 364
158 382 439
160 383 454
159 383 517
162 386 578
162 386 592
162 387 659
166 390 694
164 389 729
166 391 793
168 392 807
167 391 862
158 422 86
162 424 184
161 424 203
163 427 290
166 427 332
165 429 374
167 430 449
168 430 462
168 432 526
171 433 588
171 434 600
172 436 669
174 436 703
173 437 738
175 439 803
176 439 815
176 440 871
165 447 91
168 449 182
168 450 210
170 452 294
172 453 337
172 454 379
174 455 452
175 456 472
175 457 531
178 459 589
177 459 608
178 461 673
181 462 708
180 462 744
182 464 806
183 464 823
183 465 875
167 471 95
171 475 193
171 475 212
172 476 300
176 478 342
174 478 383
177 480 459
178 481 472
177 482 536
181 484 598
180 484 610
181 485 678
184 487 713
183 487 748
185 489 813
186 489 824
186 490 881
177 518 104
180 519 200
180 520 222
182 523 308
184 522 350
184 525 393
186 526 467
187 526 482
187 529 545
190 529 606
190 530 620
191 532 687
193 531 722
192 533 757
194 534 821
195 534 834
195 537 889
179 526 106
183 531 199
183 530 225
184 531 310
188 535 353
186 533 395
189 536 468
190 537 486
190 536 547
193 540 606
192 539 623
193 540 688
196 544 724
195 542 759
197 544 822
198 546 838
198 544 891
185 567 113
189 569 212
189 569 230
190 571 318
193 572 360
192 574 401
194 575 477
196 575 490
195 577 554
199 578 617
198 578 628
199 580 697
202 581 731
201 582 766
203 583 831
204 583 842
204 585 899
137 9 9
139 12 110
139 12 125
142 14 214
142 15 256
144 16 297
145 18 374
145 18 384
147 19 450
148 21 514
149 21 524
150 23 593
151 24 627
152 24 661
153 26 728
153 26 736
155 27 795
150 81 23
151 79 117
153 82 141
155 85 227
154 81 268
157 88 312
158 87 385
158 85 401
161 92 464
161 89 523
162 91 539
164 94 606
163 90 640
166 96 676
167 96 739
166 94 753
