blink/scripts/LUTRecoverMerge_recoveredGrade2.3dl
# Generated by Nuke for flame
# Dimensions 17x17x17
# Input bit depth 10
# Output bit depth 10
0 256 512 767 1023
0 0 0
77 72 109
144 136 205
205 194 292
260 246 371
77 72 109
145 137 207
203 192 290
260 246 371
314 296 447
144 136 205
203 192 290
258 244 369
314 296 447
365 345 521
205 194 292
260 246 371
314 296 447
365 345 521
415 392 593
260 246 371
314 296 447
365 345 521
415 392 593
464 438 662
77 72 109
145 137 207
203 192 290
260 246 371
314 296 447
145 137 207
205 194 292
259 245 370
312 294 445
365 345 521
203 192 290
259 245 370
313 295 446
363 343 518
415 392 593
260 246 371
312 294 445
363 343 518
413 390 589
464 438 662
314 296 447
365 345 521
415 392 593
464 438 662
512 484 731
144 136 205
203 192 290
258 244 369
314 296 447
365 345 521
203 192 290
259 245 370
313 295 446
363 343 518
415 392 593
258 244 369
313 295 446
365 345 521
414 391 591
461 435 658
314 296 447
363 343 518
414 391 591
462 437 660
509 481 726
365 345 521
415 392 593
461 435 658
509 481 726
554 523 790
205 194 292
260 246 371
314 296 447
365 345 521
415 392 593
260 246 371
312 294 445
363 343 518
413 390 589
464 438 662
314 296 447
363 343 518
414 391 591
462 437 660
509 481 726
365 345 521
413 390 589
462 437 660
512 484 731
556 525 793
415 392 593
464 438 662
509 481 726
556 525 793
600 566 855
260 246 371
314 296 447
365 345 521
415 392 593
464 438 662
314 296 447
365 345 521
415 392 593
464 438 662
512 484 731
365 345 521
415 392 593
461 435 658
509 481 726
554 523 790
415 392 593
464 438 662
509 481 726
556 525 793
600 566 855
464 438 662
512 484 731
554 523 790
600 566 855
643 608 917
